;FLAVOR:Marlin
;TIME:1797
;Filament used: 0.560125m
;Layer height: 0.2
;Generated with Cura_SteamEngine 3.6.0
M104 S200
M105
M109 S200
M82 ;absolute extrusion mode
G28 ;Home
G1 Z15.0 F6000 ;Move the platform down 15mm
;Prime the extruder
G92 E0
G1 F200 E3
G92 E0
G92 E0
G1 F1500 E-6.5
;LAYER_COUNT:450
;LAYER:0
M107
G0 F3600 X36.722 Y42.834 Z0.3
;TYPE:SKIRT
G1 F1500 E0
G1 F1200 X37.37 Y42.383 E0.03939
G1 X38.061 Y41.999 E0.07883
G1 X38.786 Y41.687 E0.11821
G1 X39.539 Y41.45 E0.15759
G1 X40.313 Y41.291 E0.19701
G1 X41.098 Y41.21 E0.23638
G1 X41.5 Y41.2 E0.25644
G1 X48.5 Y41.2 E0.60568
G1 X49.289 Y41.24 E0.64509
G1 X50.069 Y41.359 E0.68445
G1 X50.834 Y41.557 E0.72388
G1 X51.574 Y41.831 E0.76325
G1 X52.283 Y42.179 E0.80265
G1 X52.954 Y42.597 E0.84209
G1 X53.578 Y43.08 E0.88146
G1 X54.151 Y43.623 E0.92084
G1 X54.666 Y44.222 E0.96025
G1 X55.117 Y44.87 E0.99964
G1 X55.501 Y45.561 E1.03908
G1 X55.813 Y46.286 E1.07846
G1 X56.05 Y47.039 E1.11784
G1 X56.209 Y47.813 E1.15726
G1 X56.29 Y48.598 E1.19664
G1 X56.3 Y49 E1.2167
G1 X56.3 Y51 E1.31648
G1 X56.26 Y51.789 E1.35589
G1 X56.141 Y52.569 E1.39526
G1 X55.943 Y53.334 E1.43468
G1 X55.669 Y54.074 E1.47405
G1 X55.321 Y54.783 E1.51345
G1 X54.903 Y55.454 E1.55289
G1 X54.42 Y56.078 E1.59226
G1 X53.877 Y56.651 E1.63164
G1 X53.278 Y57.166 E1.67106
G1 X52.63 Y57.617 E1.71044
G1 X51.939 Y58.001 E1.74988
G1 X51.214 Y58.313 E1.78926
G1 X50.461 Y58.55 E1.82865
G1 X49.687 Y58.709 E1.86807
G1 X48.902 Y58.79 E1.90744
G1 X48.5 Y58.8 E1.9275
G1 X41.5 Y58.8 E2.27673
G1 X40.711 Y58.76 E2.31615
G1 X39.931 Y58.641 E2.35551
G1 X39.166 Y58.443 E2.39493
G1 X38.426 Y58.169 E2.4343
G1 X37.717 Y57.821 E2.47371
G1 X37.046 Y57.403 E2.51315
G1 X36.422 Y56.92 E2.55251
G1 X35.849 Y56.377 E2.5919
G1 X35.334 Y55.778 E2.63131
G1 X34.883 Y55.13 E2.6707
G1 X34.499 Y54.439 E2.71014
G1 X34.187 Y53.714 E2.74951
G1 X33.95 Y52.961 E2.7889
G1 X33.791 Y52.187 E2.82832
G1 X33.71 Y51.402 E2.86769
G1 X33.7 Y51 E2.88775
G1 X33.7 Y49 E2.98753
G1 X33.74 Y48.211 E3.02695
G1 X33.859 Y47.431 E3.06631
G1 X34.057 Y46.666 E3.10574
G1 X34.331 Y45.926 E3.1451
G1 X34.679 Y45.217 E3.18451
G1 X35.097 Y44.546 E3.22395
G1 X35.58 Y43.922 E3.26332
G1 X36.123 Y43.349 E3.3027
G1 X36.722 Y42.834 E3.34211
G0 F3600 X37.111 Y43.042
G1 F1200 X37.753 Y42.619 E3.38047
G1 X38.436 Y42.264 E3.41887
G1 X39.151 Y41.983 E3.4572
G1 X39.893 Y41.777 E3.49562
G1 X40.651 Y41.649 E3.53397
G1 X41.5 Y41.6 E3.5764
G1 X48.5 Y41.6 E3.92563
G1 X49.268 Y41.64 E3.964
G1 X50.028 Y41.759 E4.00237
G1 X50.771 Y41.957 E4.04074
G1 X51.49 Y42.231 E4.07912
G1 X52.176 Y42.578 E4.11748
G1 X52.823 Y42.994 E4.15585
G1 X53.423 Y43.475 E4.19422
G1 X53.97 Y44.016 E4.2326
G1 X54.458 Y44.611 E4.27099
G1 X54.881 Y45.253 E4.30935
G1 X55.236 Y45.936 E4.34775
G1 X55.517 Y46.651 E4.38608
G1 X55.723 Y47.393 E4.4245
G1 X55.851 Y48.151 E4.46285
G1 X55.9 Y49 E4.50528
G1 X55.9 Y51 E4.60506
G1 X55.86 Y51.768 E4.64343
G1 X55.741 Y52.528 E4.68181
G1 X55.543 Y53.271 E4.72017
G1 X55.269 Y53.99 E4.75856
G1 X54.922 Y54.676 E4.79691
G1 X54.506 Y55.323 E4.83528
G1 X54.025 Y55.923 E4.87365
G1 X53.484 Y56.47 E4.91203
G1 X52.889 Y56.958 E4.95042
G1 X52.247 Y57.381 E4.98878
G1 X51.564 Y57.736 E5.02718
G1 X50.849 Y58.017 E5.06551
G1 X50.107 Y58.223 E5.10393
G1 X49.349 Y58.351 E5.14228
G1 X48.5 Y58.4 E5.18471
G1 X41.5 Y58.4 E5.53394
G1 X40.732 Y58.36 E5.57231
G1 X39.972 Y58.241 E5.61069
G1 X39.229 Y58.043 E5.64905
G1 X38.51 Y57.769 E5.68744
G1 X37.824 Y57.422 E5.72579
G1 X37.177 Y57.006 E5.76417
G1 X36.577 Y56.525 E5.80253
G1 X36.03 Y55.984 E5.84091
G1 X35.542 Y55.389 E5.87931
G1 X35.119 Y54.747 E5.91766
G1 X34.764 Y54.064 E5.95607
G1 X34.483 Y53.349 E5.99439
G1 X34.277 Y52.607 E6.03281
G1 X34.149 Y51.849 E6.07116
G1 X34.1 Y51 E6.11359
G1 X34.1 Y49 E6.21337
G1 X34.14 Y48.232 E6.25174
G1 X34.259 Y47.472 E6.29012
G1 X34.457 Y46.729 E6.32848
G1 X34.731 Y46.01 E6.36687
G1 X35.078 Y45.324 E6.40522
G1 X35.494 Y44.677 E6.4436
G1 X35.975 Y44.077 E6.48196
G1 X36.516 Y43.53 E6.52035
G1 X37.111 Y43.042 E6.55874
G0 F3600 X37.498 Y43.257
G1 F1200 X38.134 Y42.862 E6.59609
G1 X38.808 Y42.538 E6.6334
G1 X39.513 Y42.288 E6.67072
G1 X40.241 Y42.114 E6.70806
G1 X40.983 Y42.019 E6.74538
G1 X41.5 Y42 E6.77119
G1 X48.5 Y42 E7.12042
G1 X49.247 Y42.04 E7.15774
G1 X49.985 Y42.159 E7.19504
G1 X50.707 Y42.357 E7.23239
G1 X51.403 Y42.63 E7.26969
G1 X52.066 Y42.977 E7.30702
G1 X52.689 Y43.392 E7.34437
G1 X53.263 Y43.871 E7.38167
G1 X53.784 Y44.408 E7.419
G1 X54.243 Y44.998 E7.45629
G1 X54.638 Y45.634 E7.49364
G1 X54.962 Y46.308 E7.53095
G1 X55.212 Y47.013 E7.56827
G1 X55.386 Y47.741 E7.60561
G1 X55.481 Y48.483 E7.64293
G1 X55.5 Y49 E7.66874
G1 X55.5 Y51 E7.76852
G1 X55.46 Y51.747 E7.80585
G1 X55.341 Y52.485 E7.84314
G1 X55.143 Y53.207 E7.88049
G1 X54.87 Y53.903 E7.91779
G1 X54.523 Y54.566 E7.95512
G1 X54.108 Y55.189 E7.99247
G1 X53.629 Y55.763 E8.02977
G1 X53.092 Y56.284 E8.0671
G1 X52.502 Y56.743 E8.10439
G1 X51.866 Y57.138 E8.14174
G1 X51.192 Y57.462 E8.17905
G1 X50.487 Y57.712 E8.21637
G1 X49.759 Y57.886 E8.25371
G1 X49.017 Y57.981 E8.29103
G1 X48.5 Y58 E8.31684
G1 X41.5 Y58 E8.66608
G1 X40.753 Y57.96 E8.7034
G1 X40.015 Y57.841 E8.74069
G1 X39.293 Y57.643 E8.77804
G1 X38.597 Y57.37 E8.81534
G1 X37.934 Y57.023 E8.85267
G1 X37.311 Y56.608 E8.89002
G1 X36.737 Y56.129 E8.92732
G1 X36.216 Y55.592 E8.96465
G1 X35.757 Y55.002 E9.00194
G1 X35.362 Y54.366 E9.03929
G1 X35.038 Y53.692 E9.0766
G1 X34.788 Y52.987 E9.11392
G1 X34.614 Y52.259 E9.15126
G1 X34.519 Y51.517 E9.18858
G1 X34.5 Y51 E9.2144
G1 X34.5 Y49 E9.31418
G1 X34.54 Y48.253 E9.3515
G1 X34.659 Y47.515 E9.38879
G1 X34.857 Y46.793 E9.42614
G1 X35.13 Y46.097 E9.46344
G1 X35.477 Y45.434 E9.50078
G1 X35.892 Y44.811 E9.53812
G1 X36.371 Y44.237 E9.57542
G1 X36.908 Y43.716 E9.61275
G1 X37.498 Y43.257 E9.65004
G0 F3600 X37.299 Y43.909
G1 F1200 X37.884 Y43.479 E9.68626
G1 X38.513 Y43.115 E9.72252
G1 X39.178 Y42.822 E9.75877
G1 X39.871 Y42.604 E9.79502
G1 X40.583 Y42.464 E9.83122
G1 X41.5 Y42.4 E9.87708
G1 X48.5 Y42.4 E10.22631
G1 X49.225 Y42.44 E10.26254
G1 X49.942 Y42.559 E10.2988
G1 X50.641 Y42.757 E10.33504
G1 X51.314 Y43.03 E10.37128
G1 X51.953 Y43.375 E10.40751
G1 X52.55 Y43.789 E10.44375
G1 X53.098 Y44.265 E10.47997
G1 X53.591 Y44.799 E10.51623
G1 X54.021 Y45.384 E10.55245
G1 X54.385 Y46.013 E10.5887
G1 X54.678 Y46.678 E10.62496
G1 X54.896 Y47.371 E10.6612
G1 X55.036 Y48.083 E10.6974
G1 X55.1 Y49 E10.74327
G1 X55.1 Y51 E10.84305
G1 X55.06 Y51.725 E10.87927
G1 X54.941 Y52.442 E10.91553
G1 X54.743 Y53.141 E10.95178
G1 X54.47 Y53.814 E10.98801
G1 X54.125 Y54.453 E11.02424
G1 X53.711 Y55.05 E11.06049
G1 X53.235 Y55.598 E11.0967
G1 X52.701 Y56.091 E11.13296
G1 X52.116 Y56.521 E11.16918
G1 X51.487 Y56.885 E11.20544
G1 X50.822 Y57.178 E11.24169
G1 X50.129 Y57.396 E11.27794
G1 X49.417 Y57.536 E11.31414
G1 X48.5 Y57.6 E11.36
G1 X41.5 Y57.6 E11.70923
G1 X40.775 Y57.56 E11.74545
G1 X40.058 Y57.441 E11.78172
G1 X39.359 Y57.243 E11.81796
G1 X38.686 Y56.97 E11.85419
G1 X38.047 Y56.625 E11.89042
G1 X37.45 Y56.211 E11.92667
G1 X36.902 Y55.735 E11.96288
G1 X36.409 Y55.201 E11.99914
G1 X35.979 Y54.616 E12.03536
G1 X35.615 Y53.987 E12.07162
G1 X35.322 Y53.322 E12.10788
G1 X35.104 Y52.629 E12.14412
G1 X34.964 Y51.917 E12.18032
G1 X34.9 Y51 E12.22618
G1 X34.9 Y49 E12.32596
G1 X34.94 Y48.275 E12.36219
G1 X35.059 Y47.558 E12.39845
G1 X35.257 Y46.859 E12.43469
G1 X35.53 Y46.186 E12.47093
G1 X35.875 Y45.547 E12.50716
G1 X36.289 Y44.95 E12.5434
G1 X36.765 Y44.402 E12.57962
G1 X37.299 Y43.909 E12.61587
G0 F3600 X37.689 Y44.109
G1 F1200 X38.268 Y43.709 E12.65098
G1 X38.889 Y43.377 E12.68612
G1 X39.543 Y43.117 E12.72123
G1 X40.223 Y42.933 E12.75637
G1 X40.919 Y42.827 E12.7915
G1 X41.5 Y42.8 E12.82051
G1 X48.5 Y42.8 E13.16975
G1 X49.203 Y42.84 E13.20488
G1 X49.897 Y42.959 E13.24
G1 X50.572 Y43.157 E13.2751
G1 X51.221 Y43.429 E13.31021
G1 X51.835 Y43.774 E13.34534
G1 X52.406 Y44.185 E13.38044
G1 X52.927 Y44.659 E13.41558
G1 X53.391 Y45.189 E13.45073
G1 X53.791 Y45.768 E13.48584
G1 X54.123 Y46.389 E13.52097
G1 X54.383 Y47.043 E13.55608
G1 X54.567 Y47.723 E13.59123
G1 X54.673 Y48.419 E13.62635
G1 X54.7 Y49 E13.65537
G1 X54.7 Y51 E13.75515
G1 X54.66 Y51.703 E13.79028
G1 X54.541 Y52.397 E13.82541
G1 X54.343 Y53.072 E13.8605
G1 X54.071 Y53.721 E13.89561
G1 X53.726 Y54.335 E13.93075
G1 X53.315 Y54.906 E13.96584
G1 X52.841 Y55.427 E14.00099
G1 X52.311 Y55.891 E14.03613
G1 X51.732 Y56.291 E14.07124
G1 X51.111 Y56.623 E14.10637
G1 X50.457 Y56.883 E14.14148
G1 X49.777 Y57.067 E14.17663
G1 X49.081 Y57.173 E14.21175
G1 X48.5 Y57.2 E14.24077
G1 X41.5 Y57.2 E14.59
G1 X40.797 Y57.16 E14.62513
G1 X40.103 Y57.041 E14.66026
G1 X39.428 Y56.843 E14.69535
G1 X38.779 Y56.571 E14.73046
G1 X38.165 Y56.226 E14.7656
G1 X37.594 Y55.815 E14.8007
G1 X37.073 Y55.341 E14.83584
G1 X36.609 Y54.811 E14.87098
G1 X36.209 Y54.232 E14.90609
G1 X35.877 Y53.611 E14.94122
G1 X35.617 Y52.957 E14.97633
G1 X35.433 Y52.277 E15.01148
G1 X35.327 Y51.581 E15.0466
G1 X35.3 Y51 E15.07562
G1 X35.3 Y49 E15.1754
G1 X35.34 Y48.297 E15.21053
G1 X35.459 Y47.603 E15.24566
G1 X35.657 Y46.928 E15.28075
G1 X35.929 Y46.279 E15.31586
G1 X36.274 Y45.665 E15.351
G1 X36.685 Y45.094 E15.3861
G1 X37.159 Y44.573 E15.42124
G1 X37.689 Y44.109 E15.45638
G0 F3600 X38.078 Y44.317
G1 F1200 X38.65 Y43.948 E15.49034
G1 X39.262 Y43.649 E15.52432
G1 X39.904 Y43.424 E15.55826
G1 X40.569 Y43.275 E15.59226
G1 X41.5 Y43.2 E15.63886
G1 X48.5 Y43.2 E15.98809
G1 X49.18 Y43.24 E16.02208
G1 X49.85 Y43.359 E16.05603
G1 X50.502 Y43.556 E16.09001
G1 X51.126 Y43.828 E16.12397
G1 X51.714 Y44.172 E16.15795
G1 X52.258 Y44.582 E16.19194
G1 X52.749 Y45.053 E16.22588
G1 X53.183 Y45.578 E16.25987
G1 X53.552 Y46.15 E16.29383
G1 X53.851 Y46.762 E16.32781
G1 X54.076 Y47.404 E16.36175
G1 X54.225 Y48.069 E16.39575
G1 X54.3 Y49 E16.44235
G1 X54.3 Y51 E16.54213
G1 X54.26 Y51.68 E16.57611
G1 X54.141 Y52.35 E16.61006
G1 X53.944 Y53.002 E16.64404
G1 X53.672 Y53.626 E16.678
G1 X53.328 Y54.214 E16.71199
G1 X52.918 Y54.758 E16.74597
G1 X52.447 Y55.249 E16.77992
G1 X51.922 Y55.683 E16.8139
G1 X51.35 Y56.052 E16.84786
G1 X50.738 Y56.351 E16.88184
G1 X50.096 Y56.576 E16.91578
G1 X49.431 Y56.725 E16.94978
G1 X48.5 Y56.8 E16.99638
G1 X41.5 Y56.8 E17.34561
G1 X40.82 Y56.76 E17.3796
G1 X40.15 Y56.641 E17.41355
G1 X39.498 Y56.444 E17.44753
G1 X38.874 Y56.172 E17.48149
G1 X38.286 Y55.828 E17.51548
G1 X37.742 Y55.418 E17.54946
G1 X37.251 Y54.947 E17.5834
G1 X36.817 Y54.422 E17.61739
G1 X36.448 Y53.85 E17.65135
G1 X36.149 Y53.238 E17.68533
G1 X35.924 Y52.596 E17.71927
G1 X35.775 Y51.931 E17.75327
G1 X35.7 Y51 E17.79987
G1 X35.7 Y49 E17.89965
G1 X35.74 Y48.32 E17.93363
G1 X35.859 Y47.65 E17.96758
G1 X36.056 Y46.998 E18.00156
G1 X36.328 Y46.374 E18.03552
G1 X36.672 Y45.786 E18.06951
G1 X37.082 Y45.242 E18.1035
G1 X37.553 Y44.751 E18.13744
G1 X38.078 Y44.317 E18.17142
G0 F3600 X37.945 Y44.935
G1 F1200 X38.465 Y44.534 E18.20418
G1 X39.029 Y44.198 E18.23694
G1 X39.631 Y43.934 E18.26973
G1 X40.26 Y43.744 E18.30251
G1 X40.907 Y43.633 E18.33526
G1 X41.5 Y43.6 E18.36489
G1 X48.5 Y43.6 E18.71413
G1 X49.156 Y43.64 E18.74691
G1 X49.802 Y43.759 E18.77969
G1 X50.429 Y43.956 E18.81247
G1 X51.027 Y44.228 E18.84525
G1 X51.588 Y44.57 E18.87803
G1 X52.103 Y44.978 E18.91081
G1 X52.565 Y45.445 E18.94358
G1 X52.966 Y45.965 E18.97634
G1 X53.302 Y46.529 E19.0091
G1 X53.566 Y47.131 E19.04189
G1 X53.756 Y47.76 E19.07467
G1 X53.867 Y48.407 E19.10742
G1 X53.9 Y49 E19.13705
G1 X53.9 Y51 E19.23683
G1 X53.86 Y51.656 E19.26962
G1 X53.741 Y52.302 E19.30239
G1 X53.544 Y52.929 E19.33518
G1 X53.272 Y53.527 E19.36796
G1 X52.93 Y54.088 E19.40074
G1 X52.522 Y54.603 E19.43352
G1 X52.055 Y55.065 E19.46629
G1 X51.535 Y55.466 E19.49905
G1 X50.971 Y55.802 E19.5318
G1 X50.369 Y56.066 E19.5646
G1 X49.74 Y56.256 E19.59738
G1 X49.093 Y56.367 E19.63013
G1 X48.5 Y56.4 E19.65976
G1 X41.5 Y56.4 E20.00899
G1 X40.844 Y56.36 E20.04178
G1 X40.198 Y56.241 E20.07455
G1 X39.571 Y56.044 E20.10734
G1 X38.973 Y55.772 E20.14012
G1 X38.412 Y55.43 E20.1729
G1 X37.897 Y55.022 E20.20568
G1 X37.435 Y54.555 E20.23845
G1 X37.034 Y54.035 E20.27121
G1 X36.698 Y53.471 E20.30396
G1 X36.434 Y52.869 E20.33676
G1 X36.244 Y52.24 E20.36954
G1 X36.133 Y51.593 E20.40229
G1 X36.1 Y51 E20.43192
G1 X36.1 Y49 E20.5317
G1 X36.14 Y48.344 E20.56449
G1 X36.259 Y47.698 E20.59726
G1 X36.456 Y47.071 E20.63005
G1 X36.728 Y46.473 E20.66283
G1 X37.07 Y45.912 E20.69561
G1 X37.478 Y45.397 E20.72838
G1 X37.945 Y44.935 E20.76116
G0 F3600 X38.336 Y45.129
G1 F1200 X38.85 Y44.76 E20.79273
G1 X39.406 Y44.46 E20.82424
G1 X39.995 Y44.232 E20.85575
G1 X40.609 Y44.08 E20.88731
G1 X41.5 Y44 E20.93194
G1 X48.5 Y44 E21.28117
G1 X49.131 Y44.04 E21.31272
G1 X49.752 Y44.159 E21.34426
G1 X50.352 Y44.356 E21.37577
G1 X50.924 Y44.627 E21.40735
G1 X51.456 Y44.967 E21.43885
G1 X51.941 Y45.373 E21.4704
G1 X52.371 Y45.836 E21.50193
G1 X52.74 Y46.35 E21.53349
G1 X53.04 Y46.906 E21.56501
G1 X53.268 Y47.495 E21.59652
G1 X53.42 Y48.109 E21.62808
G1 X53.5 Y49 E21.67271
G1 X53.5 Y51 E21.77249
G1 X53.46 Y51.631 E21.80404
G1 X53.341 Y52.252 E21.83558
G1 X53.144 Y52.852 E21.86709
G1 X52.873 Y53.424 E21.89867
G1 X52.533 Y53.956 E21.93017
G1 X52.127 Y54.441 E21.96172
G1 X51.664 Y54.871 E21.99325
G1 X51.15 Y55.24 E22.02481
G1 X50.594 Y55.54 E22.05633
G1 X50.005 Y55.768 E22.08784
G1 X49.391 Y55.92 E22.1194
G1 X48.5 Y56 E22.16403
G1 X41.5 Y56 E22.51326
G1 X40.869 Y55.96 E22.54481
G1 X40.248 Y55.841 E22.57635
G1 X39.648 Y55.644 E22.60786
G1 X39.076 Y55.373 E22.63944
G1 X38.544 Y55.033 E22.67094
G1 X38.059 Y54.627 E22.70249
G1 X37.629 Y54.164 E22.73402
G1 X37.26 Y53.65 E22.76558
G1 X36.96 Y53.094 E22.7971
G1 X36.732 Y52.505 E22.82861
G1 X36.58 Y51.891 E22.86017
G1 X36.5 Y51 E22.9048
G1 X36.5 Y49 E23.00458
G1 X36.54 Y48.369 E23.03612
G1 X36.659 Y47.748 E23.06767
G1 X36.856 Y47.148 E23.09918
G1 X37.127 Y46.576 E23.13075
G1 X37.467 Y46.044 E23.16225
G1 X37.873 Y45.559 E23.19381
G1 X38.336 Y45.129 E23.22533
G0 F3600 X38.725 Y45.331
G1 F1200 X39.232 Y44.998 E23.2556
G1 X39.778 Y44.734 E23.28585
G1 X40.354 Y44.545 E23.3161
G1 X40.95 Y44.433 E23.34635
G1 X41.5 Y44.4 E23.37384
G1 X48.5 Y44.4 E23.72307
G1 X49.105 Y44.44 E23.75332
G1 X49.699 Y44.559 E23.78355
G1 X50.273 Y44.755 E23.81381
G1 X50.816 Y45.026 E23.84408
G1 X51.319 Y45.365 E23.87435
G1 X51.772 Y45.767 E23.90456
G1 X52.169 Y46.225 E23.9348
G1 X52.502 Y46.732 E23.96506
G1 X52.766 Y47.278 E23.99532
G1 X52.955 Y47.854 E24.02556
G1 X53.067 Y48.45 E24.05582
G1 X53.1 Y49 E24.08331
G1 X53.1 Y51 E24.18309
G1 X53.06 Y51.605 E24.21334
G1 X52.941 Y52.199 E24.24356
G1 X52.745 Y52.773 E24.27382
G1 X52.474 Y53.316 E24.3041
G1 X52.135 Y53.819 E24.33436
G1 X51.733 Y54.272 E24.36458
G1 X51.275 Y54.669 E24.39482
G1 X50.768 Y55.002 E24.42508
G1 X50.222 Y55.266 E24.45534
G1 X49.646 Y55.455 E24.48558
G1 X49.05 Y55.567 E24.51583
G1 X48.5 Y55.6 E24.54332
G1 X41.5 Y55.6 E24.89256
G1 X40.895 Y55.56 E24.9228
G1 X40.301 Y55.441 E24.95303
G1 X39.727 Y55.245 E24.98329
G1 X39.184 Y54.974 E25.01357
G1 X38.681 Y54.635 E25.04383
G1 X38.228 Y54.233 E25.07404
G1 X37.831 Y53.775 E25.10428
G1 X37.498 Y53.268 E25.13454
G1 X37.234 Y52.722 E25.1648
G1 X37.045 Y52.146 E25.19505
G1 X36.933 Y51.55 E25.2253
G1 X36.9 Y51 E25.25279
G1 X36.9 Y49 E25.35257
G1 X36.94 Y48.395 E25.38282
G1 X37.059 Y47.801 E25.41304
G1 X37.255 Y47.227 E25.4433
G1 X37.526 Y46.684 E25.47358
G1 X37.865 Y46.181 E25.50384
G1 X38.267 Y45.728 E25.53406
G1 X38.725 Y45.331 E25.5643
G0 F3600 X39.113 Y45.544
G1 F1200 X39.611 Y45.249 E25.59318
G1 X40.145 Y45.024 E25.62209
G1 X40.705 Y44.876 E25.65098
G1 X41.5 Y44.8 E25.69083
G1 X48.5 Y44.8 E26.04006
G1 X49.078 Y44.84 E26.06896
G1 X49.645 Y44.959 E26.09787
G1 X50.19 Y45.155 E26.12676
G1 X50.703 Y45.424 E26.15566
G1 X51.174 Y45.761 E26.18456
G1 X51.594 Y46.16 E26.21346
G1 X51.956 Y46.613 E26.24239
G1 X52.251 Y47.111 E26.27126
G1 X52.476 Y47.645 E26.30017
G1 X52.624 Y48.205 E26.32907
G1 X52.7 Y49 E26.36892
G1 X52.7 Y51 E26.4687
G1 X52.66 Y51.578 E26.4976
G1 X52.541 Y52.145 E26.52651
G1 X52.345 Y52.69 E26.5554
G1 X52.076 Y53.203 E26.5843
G1 X51.739 Y53.674 E26.61319
G1 X51.34 Y54.094 E26.64209
G1 X50.887 Y54.456 E26.67102
