;FLAVOR:Marlin
;TIME:1625
;Filament used: 0.450419m
;Layer height: 0.2
;Generated with Cura_SteamEngine 3.6.0
M104 S200
M105
M109 S200
M82 ;absolute extrusion mode
G28 ;Home
G1 Z15.0 F6000 ;Move the platform down 15mm
;Prime the extruder
G92 E0
G1 F200 E3
G92 E0
G92 E0
G1 F1500 E-6.5
;LAYER_COUNT:460
;LAYER:0
M107
G0 F3600 X30.787 Y43.836 Z0.3
;TYPE:SKIRT
G1 F1500 E0
G1 F1200 X31.3 Y43.489 E0.0309
G1 X31.854 Y43.211 E0.06182
G1 X32.144 Y43.099 E0.07733
G1 X32.9 Y42.835 E0.11728
G1 X33.496 Y42.669 E0.14815
G1 X33.959 Y42.596 E0.17153
G1 X34.479 Y42.539 E0.19763
G1 X35.088 Y42.511 E0.22805
G1 X41.19 Y42.62 E0.53253
G1 X45.244 Y42.534 E0.73483
G1 X45.863 Y42.561 E0.76574
G1 X46.673 Y42.72 E0.80692
G1 X47.445 Y42.942 E0.847
G1 X48.028 Y43.151 E0.87789
G1 X48.515 Y43.396 E0.90509
G1 X48.961 Y43.653 E0.93077
G1 X49.476 Y43.996 E0.96164
G1 X50.04 Y44.502 E0.99945
G1 X50.738 Y45.235 E1.04994
G1 X51.135 Y45.71 E1.08083
G1 X51.51 Y46.309 E1.11609
G1 X51.73 Y46.727 E1.13965
G1 X51.982 Y47.293 E1.17056
G1 X52.155 Y47.865 E1.20038
G1 X52.357 Y48.725 E1.24445
G1 X52.459 Y49.336 E1.27535
G1 X52.482 Y49.955 E1.30626
G1 X52.449 Y50.399 E1.32847
G1 X52.33 Y51.383 E1.37792
G1 X52.216 Y51.992 E1.40883
G1 X52.025 Y52.581 E1.43972
G1 X51.786 Y53.092 E1.46787
G1 X51.296 Y53.997 E1.51921
G1 X50.967 Y54.522 E1.55012
G1 X50.572 Y55 E1.58106
G1 X50.051 Y55.478 E1.61633
G1 X49.165 Y56.178 E1.67267
G1 X48.655 Y56.53 E1.70358
G1 X48.104 Y56.813 E1.73449
G1 X47.324 Y57.076 E1.77555
G1 X46.198 Y57.35 E1.83337
G1 X45.588 Y57.457 E1.86427
G1 X44.907 Y57.483 E1.89827
G1 X43.152 Y57.426 E1.98587
G1 X37.206 Y57.408 E2.28252
G1 X35.232 Y57.483 E2.38107
G1 X34.465 Y57.45 E2.41937
G1 X33.709 Y57.357 E2.45737
G1 X33.1 Y57.242 E2.48829
G1 X32.336 Y56.975 E2.52867
G1 X31.571 Y56.633 E2.57048
G1 X31.023 Y56.344 E2.60139
G1 X30.504 Y55.977 E2.6331
G1 X30.078 Y55.631 E2.66048
G1 X29.623 Y55.21 E2.69141
G1 X29.341 Y54.885 E2.71287
G1 X28.945 Y54.385 E2.74469
G1 X28.593 Y53.876 E2.77557
G1 X28.334 Y53.381 E2.80344
G1 X28.063 Y52.781 E2.83629
G1 X27.845 Y52.201 E2.8672
G1 X27.712 Y51.653 E2.89533
G1 X27.59 Y50.973 E2.9298
G1 X27.521 Y50.357 E2.96073
G1 X27.528 Y49.767 E2.99016
G1 X27.578 Y49.099 E3.02358
G1 X27.664 Y48.485 E3.05451
G1 X27.934 Y47.612 E3.1001
G1 X28.325 Y46.673 E3.15085
G1 X28.599 Y46.118 E3.18173
G1 X29.044 Y45.475 E3.22074
G1 X29.349 Y45.103 E3.24474
G1 X29.772 Y44.65 E3.27566
G1 X30.122 Y44.351 E3.29863
G1 X30.787 Y43.836 E3.34059
G0 F3600 X31.032 Y44.152
G1 F1200 X31.524 Y43.822 E3.37015
G1 X32.275 Y43.477 E3.41138
G1 X33.031 Y43.213 E3.45133
G1 X33.603 Y43.056 E3.48092
G1 X34.003 Y42.993 E3.50112
G1 X34.523 Y42.936 E3.52722
G1 X35.081 Y42.911 E3.55509
G1 X41.191 Y43.02 E3.85997
G1 X45.252 Y42.934 E4.06262
G1 X45.845 Y42.961 E4.09223
G1 X46.562 Y43.104 E4.12871
G1 X47.334 Y43.326 E4.16878
G1 X47.892 Y43.528 E4.19839
G1 X48.315 Y43.743 E4.22206
G1 X48.761 Y44 E4.24774
G1 X49.253 Y44.33 E4.2773
G1 X49.75 Y44.778 E4.31068
G1 X50.448 Y45.511 E4.36118
G1 X50.827 Y45.967 E4.39076
G1 X51.156 Y46.496 E4.42184
G1 X51.376 Y46.914 E4.44541
G1 X51.616 Y47.456 E4.47498
G1 X51.765 Y47.957 E4.50106
G1 X51.967 Y48.817 E4.54513
G1 X52.064 Y49.402 E4.57472
G1 X52.081 Y49.995 E4.60431
G1 X52.052 Y50.351 E4.62213
G1 X51.933 Y51.335 E4.67158
G1 X51.822 Y51.918 E4.70119
G1 X51.634 Y52.48 E4.73076
G1 X51.434 Y52.902 E4.75405
G1 X50.944 Y53.807 E4.8054
G1 X50.627 Y54.308 E4.83498
G1 X50.246 Y54.762 E4.86455
G1 X49.803 Y55.164 E4.89439
G1 X48.917 Y55.864 E4.95072
G1 X48.428 Y56.2 E4.98032
G1 X47.898 Y56.467 E5.00993
G1 X47.229 Y56.687 E5.04507
G1 X46.103 Y56.961 E5.10288
G1 X45.519 Y57.062 E5.13245
G1 X44.92 Y57.084 E5.16236
G1 X43.133 Y57.026 E5.25156
G1 X37.192 Y57.008 E5.54796
G1 X35.217 Y57.083 E5.64656
G1 X34.514 Y57.053 E5.68166
G1 X33.758 Y56.96 E5.71967
G1 X33.175 Y56.848 E5.74928
G1 X32.499 Y56.61 E5.78504
G1 X31.734 Y56.268 E5.82684
G1 X31.21 Y55.99 E5.85644
G1 X30.756 Y55.666 E5.88427
G1 X30.33 Y55.32 E5.91165
G1 X29.896 Y54.916 E5.94123
G1 X29.655 Y54.637 E5.95962
G1 X29.259 Y54.137 E5.99144
G1 X28.923 Y53.648 E6.02104
G1 X28.698 Y53.216 E6.04534
G1 X28.427 Y52.616 E6.07819
G1 X28.22 Y52.061 E6.10774
G1 X28.106 Y51.582 E6.13231
G1 X27.984 Y50.902 E6.16677
G1 X27.919 Y50.313 E6.19634
G1 X27.927 Y49.797 E6.22208
G1 X27.977 Y49.129 E6.2555
G1 X28.061 Y48.542 E6.28509
G1 X28.303 Y47.766 E6.32564
G1 X28.694 Y46.827 E6.37639
G1 X28.958 Y46.296 E6.40597
G1 X29.353 Y45.728 E6.44049
G1 X29.658 Y45.356 E6.46449
G1 X30.064 Y44.924 E6.49406
G1 X30.367 Y44.667 E6.51389
G1 X31.032 Y44.152 E6.55585
G0 F3600 X31.277 Y44.468
G1 F1200 X31.747 Y44.155 E6.58402
G1 X32.407 Y43.855 E6.62019
G1 X33.163 Y43.591 E6.66014
G1 X33.709 Y43.442 E6.68838
G1 X34.046 Y43.391 E6.70538
G1 X34.566 Y43.334 E6.73148
G1 X35.074 Y43.311 E6.75685
G1 X41.193 Y43.42 E7.06218
G1 X45.261 Y43.334 E7.26518
G1 X45.826 Y43.362 E7.2934
G1 X46.451 Y43.489 E7.32522
G1 X47.223 Y43.711 E7.36529
G1 X47.754 Y43.905 E7.3935
G1 X48.115 Y44.089 E7.41371
G1 X48.561 Y44.346 E7.43939
G1 X49.03 Y44.662 E7.46761
G1 X49.461 Y45.054 E7.49667
G1 X50.159 Y45.787 E7.54717
G1 X50.519 Y46.223 E7.57538
G1 X50.802 Y46.682 E7.60228
G1 X51.022 Y47.1 E7.62585
G1 X51.249 Y47.618 E7.65406
G1 X51.376 Y48.048 E7.67643
G1 X51.578 Y48.908 E7.72051
G1 X51.668 Y49.466 E7.7487
G1 X51.655 Y50.303 E7.79047
G1 X51.536 Y51.287 E7.83992
G1 X51.429 Y51.842 E7.86812
G1 X51.244 Y52.377 E7.89636
G1 X51.083 Y52.712 E7.9149
G1 X50.593 Y53.617 E7.96624
G1 X50.289 Y54.093 E7.99442
G1 X49.921 Y54.523 E8.02266
G1 X49.555 Y54.851 E8.04718
G1 X48.669 Y55.551 E8.10351
G1 X48.201 Y55.869 E8.13174
G1 X47.694 Y56.118 E8.15992
G1 X47.135 Y56.299 E8.18924
G1 X46.009 Y56.573 E8.24705
G1 X45.451 Y56.667 E8.27528
G1 X44.933 Y56.684 E8.30114
G1 X43.147 Y56.626 E8.39029
G1 X37.179 Y56.608 E8.68804
G1 X35.202 Y56.683 E8.78674
G1 X34.563 Y56.656 E8.81865
G1 X33.807 Y56.563 E8.85665
G1 X33.252 Y56.455 E8.88486
G1 X32.662 Y56.245 E8.9161
G1 X31.897 Y55.903 E8.95791
G1 X31.399 Y55.636 E8.9861
G1 X31.008 Y55.356 E9.01009
G1 X30.582 Y55.01 E9.03747
G1 X30.17 Y54.623 E9.06567
G1 X29.968 Y54.388 E9.08113
G1 X29.572 Y53.888 E9.11295
G1 X29.254 Y53.422 E9.1411
G1 X29.063 Y53.052 E9.16187
G1 X28.792 Y52.452 E9.19472
G1 X28.596 Y51.921 E9.22296
G1 X28.5 Y51.511 E9.24397
G1 X28.378 Y50.831 E9.27843
G1 X28.318 Y50.269 E9.30663
G1 X28.326 Y49.826 E9.32874
G1 X28.376 Y49.158 E9.36216
G1 X28.458 Y48.599 E9.39034
G1 X28.672 Y47.919 E9.42591
G1 X29.063 Y46.98 E9.47666
G1 X29.317 Y46.475 E9.50486
G1 X29.663 Y45.982 E9.53491
G1 X29.968 Y45.61 E9.55891
G1 X30.356 Y45.199 E9.5871
G1 X30.612 Y44.983 E9.60382
G1 X31.277 Y44.468 E9.64578
G0 F3600 X31.522 Y44.785
G1 F1200 X31.969 Y44.489 E9.67253
G1 X32.539 Y44.232 E9.70372
G1 X33.295 Y43.968 E9.74367
G1 X33.813 Y43.83 E9.77041
G1 X34.09 Y43.788 E9.78439
G1 X34.61 Y43.731 E9.81049
G1 X35.066 Y43.711 E9.83326
G1 X41.193 Y43.821 E10.13899
G1 X45.269 Y43.734 E10.34239
G1 X45.805 Y43.762 E10.36917
G1 X46.341 Y43.873 E10.39647
G1 X47.113 Y44.095 E10.43655
G1 X47.616 Y44.281 E10.46331
G1 X47.915 Y44.436 E10.48011
G1 X48.361 Y44.693 E10.50579
G1 X48.805 Y44.994 E10.53255
G1 X49.171 Y45.329 E10.5573
G1 X49.869 Y46.062 E10.6078
G1 X50.209 Y46.477 E10.63457
G1 X50.448 Y46.868 E10.65743
G1 X50.668 Y47.286 E10.681
G1 X50.881 Y47.778 E10.70774
G1 X50.987 Y48.14 E10.72656
G1 X51.189 Y49 E10.77064
G1 X51.272 Y49.53 E10.7974
G1 X51.258 Y50.255 E10.83358
G1 X51.139 Y51.239 E10.88303
G1 X51.035 Y51.765 E10.90978
G1 X50.854 Y52.27 E10.93654
G1 X50.731 Y52.521 E10.95049
G1 X50.241 Y53.426 E11.00183
G1 X49.951 Y53.877 E11.02858
G1 X49.597 Y54.281 E11.05538
G1 X49.307 Y54.537 E11.07468
G1 X48.421 Y55.237 E11.13101
G1 X47.976 Y55.537 E11.15779
G1 X47.492 Y55.768 E11.18454
G1 X47.04 Y55.91 E11.20818
G1 X45.914 Y56.184 E11.266
G1 X45.385 Y56.272 E11.29275
G1 X44.946 Y56.284 E11.31466
G1 X43.161 Y56.226 E11.40376
G1 X37.165 Y56.208 E11.7029
G1 X35.187 Y56.283 E11.80166
G1 X34.611 Y56.259 E11.83042
G1 X33.855 Y56.166 E11.86842
G1 X33.33 Y56.061 E11.89513
G1 X32.826 Y55.88 E11.92185
G1 X32.061 Y55.538 E11.96366
G1 X31.589 Y55.283 E11.99042
G1 X31.26 Y55.045 E12.01068
G1 X30.834 Y54.699 E12.03806
G1 X30.282 Y54.14 E12.07725
G1 X29.886 Y53.64 E12.10907
G1 X29.585 Y53.196 E12.13584
G1 X29.427 Y52.887 E12.15315
G1 X29.156 Y52.287 E12.186
G1 X28.972 Y51.783 E12.21276
G1 X28.894 Y51.441 E12.23026
G1 X28.772 Y50.761 E12.26473
G1 X28.716 Y50.227 E12.29152
G1 X28.725 Y49.856 E12.31003
G1 X28.775 Y49.188 E12.34345
G1 X28.855 Y48.658 E12.3702
G1 X29.042 Y48.073 E12.40084
G1 X29.433 Y47.134 E12.45158
G1 X29.675 Y46.656 E12.47831
G1 X29.972 Y46.235 E12.50402
G1 X30.277 Y45.863 E12.52802
G1 X30.647 Y45.475 E12.55476
G1 X30.857 Y45.3 E12.5684
G1 X31.522 Y44.785 E12.61036
G0 F3600 X31.767 Y45.101
G1 F1200 X32.19 Y44.824 E12.63559
G1 X32.671 Y44.61 E12.66186
G1 X33.427 Y44.346 E12.70181
G1 X34.133 Y44.186 E12.73792
G1 X34.653 Y44.129 E12.76402
G1 X35.059 Y44.111 E12.78429
G1 X41.195 Y44.221 E13.09047
G1 X45.278 Y44.134 E13.29422
G1 X45.783 Y44.163 E13.31945
G1 X46.23 Y44.258 E13.34225
G1 X47.002 Y44.48 E13.38233
G1 X47.476 Y44.657 E13.40757
G1 X47.716 Y44.782 E13.42107
G1 X48.162 Y45.039 E13.44675
G1 X48.578 Y45.326 E13.47197
G1 X48.881 Y45.605 E13.49252
G1 X49.579 Y46.338 E13.54301
G1 X49.898 Y46.731 E13.56827
G1 X50.094 Y47.055 E13.58716
G1 X50.314 Y47.473 E13.61073
G1 X50.513 Y47.937 E13.63591
G1 X50.597 Y48.231 E13.65117
G1 X50.799 Y49.091 E13.69524
G1 X50.876 Y49.591 E13.72048
G1 X50.861 Y50.207 E13.75122
G1 X50.742 Y51.191 E13.80067
G1 X50.642 Y51.687 E13.82592
G1 X50.379 Y52.331 E13.86062
G1 X49.889 Y53.236 E13.91196
G1 X49.614 Y53.66 E13.93718
G1 X49.275 Y54.035 E13.9624
G1 X49.059 Y54.223 E13.97668
G1 X48.173 Y54.923 E14.03302
G1 X47.753 Y55.204 E14.05823
G1 X47.293 Y55.415 E14.08348
G1 X46.946 Y55.521 E14.10158
G1 X45.82 Y55.795 E14.1594
G1 X45.32 Y55.876 E14.18467
G1 X44.959 Y55.884 E14.20268
G1 X43.175 Y55.826 E14.29173
G1 X37.176 Y55.808 E14.59102
G1 X35.172 Y55.884 E14.69108
G1 X34.66 Y55.862 E14.71664
G1 X33.904 Y55.769 E14.75464
G1 X33.409 Y55.668 E14.77985
G1 X32.989 Y55.514 E14.80217
G1 X32.224 Y55.172 E14.84397
G1 X31.78 Y54.93 E14.8692
G1 X31.513 Y54.735 E14.8857
G1 X31.087 Y54.389 E14.91308
G1 X30.595 Y53.892 E14.94797
G1 X30.199 Y53.392 E14.97979
G1 X29.918 Y52.972 E15.005
G1 X29.792 Y52.722 E15.01897
G1 X29.521 Y52.122 E15.05181
G1 X29.35 Y51.646 E15.07705
G1 X29.287 Y51.37 E15.09117
G1 X29.165 Y50.69 E15.12564
G1 X29.116 Y50.187 E15.15085
G1 X29.124 Y49.886 E15.16587
G1 X29.174 Y49.218 E15.19929
G1 X29.251 Y48.719 E15.22448
G1 X29.411 Y48.227 E15.25029
G1 X29.802 Y47.288 E15.30104
G1 X30.032 Y46.838 E15.32625
G1 X30.281 Y46.489 E15.34764
G1 X30.586 Y46.117 E15.37164
G1 X31.102 Y45.616 E15.40752
G1 X31.767 Y45.101 E15.44949
G1 F1500 E8.94949
;MESH:Object 1(1)
G0 F3600 X33.091 Y47.232
G0 X33.619 Y47.94
G0 X34.757 Y47.614
G0 X34.742 Y47.516
;TYPE:WALL-OUTER
G1 F1500 E15.44949
G1 F1200 X34.756 Y47.513 E15.4502
G1 X34.77 Y47.513 E15.4509
G1 X34.985 Y47.502 E15.46164
G1 X35.003 Y47.501 E15.46254
G1 X35.015 Y47.501 E15.46314
G1 X35.231 Y47.513 E15.47393
G1 X35.266 Y47.515 E15.47568
G1 X35.475 Y47.546 E15.48622
G1 X35.492 Y47.549 E15.48708
G1 X35.712 Y47.603 E15.49838
G1 X35.722 Y47.606 E15.4989
G1 X35.739 Y47.612 E15.4998
G1 X35.943 Y47.685 E15.51061
G1 X35.955 Y47.69 E15.51126
G1 X35.969 Y47.696 E15.51202
G1 X36.165 Y47.79 E15.52287
G1 X36.196 Y47.805 E15.52458
G1 X36.378 Y47.914 E15.53517
G1 X36.387 Y47.92 E15.53571
G1 X36.402 Y47.931 E15.53664
G1 X36.574 Y48.061 E15.54739
G1 X36.604 Y48.084 E15.54928
G1 X36.757 Y48.222 E15.55956
G1 X36.768 Y48.232 E15.5603
G1 X36.778 Y48.243 E15.56104
G1 X36.925 Y48.406 E15.57199
G1 X36.939 Y48.425 E15.57317
G1 X37.068 Y48.597 E15.5839
G1 X37.078 Y48.609 E15.58467
G1 X37.088 Y48.626 E15.58566
G1 X37.197 Y48.813 E15.59646
G1 X37.217 Y48.846 E15.59838
G1 X37.304 Y49.031 E15.60858
G1 X37.309 Y49.041 E15.60914
G1 X37.315 Y49.058 E15.61004
G1 X37.39 Y49.27 E15.62126
G1 X37.394 Y49.288 E15.62218
G1 X37.449 Y49.506 E15.63339
G1 X37.451 Y49.524 E15.6343
G1 X37.485 Y49.738 E15.64511
G1 X37.488 Y49.754 E15.64592
G1 X37.488 Y49.77 E15.64672
G1 X37.499 Y49.986 E15.65751
G1 X37.5 Y50 E15.65821
G1 X37.5 Y50.015 E15.65896
G1 X37.488 Y50.239 E15.67015
G1 X37.486 Y50.256 E15.671
G1 X37.454 Y50.473 E15.68195
G1 X37.452 Y50.485 E15.68255
G1 X37.448 Y50.502 E15.68342
G1 X37.394 Y50.712 E15.69424
G1 X37.385 Y50.745 E15.69595
G1 X37.313 Y50.944 E15.70651
G1 X37.301 Y50.975 E15.70817
G1 X37.208 Y51.171 E15.71899
G1 X37.198 Y51.188 E15.71997
G1 X37.088 Y51.373 E15.73071
G1 X37.077 Y51.391 E15.73176
G1 X36.94 Y51.576 E15.74325
G1 X36.933 Y51.585 E15.74382
G1 X36.919 Y51.6 E15.74484
G1 X36.773 Y51.757 E15.75554
G1 X36.742 Y51.791 E15.75783
G1 X36.591 Y51.928 E15.768
G1 X36.575 Y51.94 E15.769
G1 X36.402 Y52.068 E15.77974
G1 X36.388 Y52.079 E15.78063
G1 X36.378 Y52.085 E15.78121
G1 X36.192 Y52.197 E15.79204
G1 X36.182 Y52.203 E15.79262
G1 X36.166 Y52.21 E15.79349
G1 X35.97 Y52.303 E15.80432
G1 X35.953 Y52.311 E15.80525
G1 X35.943 Y52.314 E15.80578
G1 X35.739 Y52.387 E15.81659
G1 X35.713 Y52.393 E15.81792
G1 X35.504 Y52.447 E15.82869
G1 X35.485 Y52.452 E15.82967
G1 X35.471 Y52.454 E15.83037
G1 X35.255 Y52.483 E15.84124
G1 X35.224 Y52.488 E15.84281
G1 X35.013 Y52.497 E15.85335
G1 X34.973 Y52.499 E15.85535
G1 X34.769 Y52.488 E15.86554
G1 X34.752 Y52.487 E15.86639
G1 X34.522 Y52.454 E15.87798
G1 X34.497 Y52.448 E15.87926
G1 X34.287 Y52.393 E15.89009
G1 X34.249 Y52.383 E15.89205
G1 X34.057 Y52.314 E15.90223
G1 X34.045 Y52.309 E15.90288
G1 X34.03 Y52.302 E15.90371
G1 X33.836 Y52.209 E15.91444
G1 X33.805 Y52.194 E15.91616
G1 X33.625 Y52.087 E15.9266
G1 X33.609 Y52.077 E15.92755
G1 X33.6 Y52.07 E15.92812
G1 X33.426 Y51.941 E15.93892
G1 X33.415 Y51.933 E15.9396
G1 X33.402 Y51.921 E15.94048
G1 X33.244 Y51.774 E15.95125
G1 X33.22 Y51.752 E15.95287
G1 X33.079 Y51.598 E15.96329
G1 X33.067 Y51.585 E15.96417
G1 X33.059 Y51.574 E15.96485
G1 X32.931 Y51.4 E15.97563
G1 X32.924 Y51.391 E15.9762
G1 X32.915 Y51.376 E15.97707
G1 X32.804 Y51.189 E15.98792
G1 X32.791 Y51.167 E15.98919
G1 X32.698 Y50.969 E16.00011
G1 X32.691 Y50.955 E16.00089
G1 X32.686 Y50.94 E16.00168
G1 X32.615 Y50.736 E16.01245
G1 X32.603 Y50.702 E16.01425
G1 X32.552 Y50.502 E16.02455
G1 X32.548 Y50.487 E16.02532
G1 X32.546 Y50.472 E16.02608
G1 X32.514 Y50.249 E16.03732
G1 X32.514 Y50.231 E16.03822
G1 X32.502 Y50.015 E16.04901
G1 X32.501 Y50 E16.04976
G1 X32.501 Y49.986 E16.05046
G1 X32.512 Y49.771 E16.0612
G1 X32.513 Y49.752 E16.06215
G1 X32.544 Y49.529 E16.07338
G1 X32.546 Y49.518 E16.07394
G1 X32.551 Y49.498 E16.07497
G1 X32.605 Y49.287 E16.08583
G1 X32.608 Y49.275 E16.08645
G1 X32.613 Y49.261 E16.08719
G1 X32.686 Y49.058 E16.09795
G1 X32.691 Y49.044 E16.0987
G1 X32.697 Y49.03 E16.09946
G1 X32.792 Y48.834 E16.11032
G1 X32.805 Y48.807 E16.11182
G1 X32.914 Y48.624 E16.12244
G1 X32.924 Y48.608 E16.12339
G1 X33.06 Y48.426 E16.13472
G1 X33.079 Y48.401 E16.13629
G1 X33.224 Y48.243 E16.14699
G1 X33.239 Y48.226 E16.14812
G1 X33.407 Y48.074 E16.15942
G1 X33.426 Y48.06 E16.1606
G1 X33.599 Y47.931 E16.17136
G1 X33.608 Y47.924 E16.17193
G1 X33.622 Y47.916 E16.17274
G1 X33.809 Y47.803 E16.18364
G1 X33.821 Y47.796 E16.18433
G1 X33.839 Y47.788 E16.18531
G1 X34.033 Y47.699 E16.19596
G1 X34.073 Y47.68 E16.19817
G1 X34.26 Y47.613 E16.20808
G1 X34.271 Y47.609 E16.20867
G1 X34.288 Y47.605 E16.20954
G1 X34.504 Y47.551 E16.22065
G1 X34.527 Y47.548 E16.2218
G1 X34.742 Y47.516 E16.23265
G0 F3600 X34.756 Y47.513
G0 X34.77 Y47.513
G0 X34.942 Y47.505
G0 X34.946 Y47.604
G0 X33.755 Y48.137
G0 X33.268 Y48.578
G0 X32.93 Y49.143
G0 X32.771 Y49.782
G0 X32.802 Y50.436
G0 X33.023 Y51.056
G0 X33.416 Y51.585
G0 X33.565 Y51.695
G0 X34.333 Y52.202
G0 X34.361 Y52.107
G1 F1200 X34.571 Y52.159 E16.24064
G1 X34.785 Y52.191 E16.24858
G1 X34.987 Y52.2 E16.25608
G1 X35 Y52.201 E16.2564
G1 X35.215 Y52.191 E16.26438
G1 X35.43 Y52.159 E16.27239
G1 X35.639 Y52.107 E16.28033
G1 X35.842 Y52.034 E16.28831
G1 X36.038 Y51.942 E16.29632
G1 X36.223 Y51.83 E16.30433
G1 X36.397 Y51.702 E16.31238
G1 X36.542 Y51.57 E16.31966
G1 X36.557 Y51.557
