;FLAVOR:Marlin
;TIME:724
;Filament used: 0.497635m
;Layer height: 0.2
;Generated with Cura_SteamEngine 3.6.0
M104 S200
M105
M109 S200
M82 ;absolute extrusion mode
G28 ;Home
G1 Z15.0 F6000 ;Move the platform down 15mm
;Prime the extruder
G92 E0
G1 F200 E3
G92 E0
G92 E0
G1 F1500 E-6.5
;LAYER_COUNT:10
;LAYER:0
M107
G0 F3600 X37.949 Y4.474 Z0.3
;TYPE:SKIRT
G1 F1500 E0
G1 F1200 X38.068 Y3.951 E0.02676
G1 X38.263 Y3.452 E0.05349
G1 X38.531 Y2.987 E0.08026
G1 X38.864 Y2.567 E0.10701
G1 X39.256 Y2.201 E0.13376
G1 X39.698 Y1.898 E0.1605
G1 X40.181 Y1.663 E0.18729
G1 X40.692 Y1.503 E0.21401
G1 X41.222 Y1.42 E0.24077
G1 X41.51 Y1.409 E0.25515
G1 X48.492 Y1.41 E0.60349
G1 X49.026 Y1.45 E0.6302
G1 X49.549 Y1.569 E0.65696
G1 X50.049 Y1.764 E0.68374
G1 X50.513 Y2.032 E0.71047
G1 X50.933 Y2.365 E0.73721
G1 X51.299 Y2.758 E0.764
G1 X51.603 Y3.2 E0.79077
G1 X51.837 Y3.682 E0.8175
G1 X51.997 Y4.194 E0.84426
G1 X52.08 Y4.724 E0.87102
G1 X52.091 Y5.01 E0.8853
G1 X52.091 Y94.991 E5.37447
G1 X52.051 Y95.526 E5.40124
G1 X51.932 Y96.049 E5.428
G1 X51.737 Y96.548 E5.45473
G1 X51.469 Y97.013 E5.4815
G1 X51.136 Y97.433 E5.50824
G1 X50.744 Y97.799 E5.535
G1 X50.302 Y98.102 E5.56173
G1 X49.819 Y98.337 E5.58853
G1 X49.308 Y98.497 E5.61525
G1 X48.778 Y98.58 E5.64201
G1 X48.491 Y98.591 E5.65634
G1 X41.509 Y98.591 E6.00467
G1 X40.974 Y98.551 E6.03144
G1 X40.451 Y98.432 E6.0582
G1 X39.952 Y98.237 E6.08493
G1 X39.487 Y97.969 E6.1117
G1 X39.067 Y97.636 E6.13844
G1 X38.701 Y97.244 E6.1652
G1 X38.398 Y96.802 E6.19194
G1 X38.163 Y96.319 E6.21873
G1 X38.003 Y95.808 E6.24545
G1 X37.92 Y95.278 E6.27221
G1 X37.909 Y94.991 E6.28654
G1 X37.909 Y5.009 E10.77576
G1 X37.949 Y4.474 E10.80253
G0 F3600 X38.349 Y4.505
G1 F1200 X38.468 Y4.014 E10.82773
G1 X38.662 Y3.547 E10.85296
G1 X38.928 Y3.117 E10.87819
G1 X39.258 Y2.734 E10.90341
G1 X39.645 Y2.408 E10.92865
G1 X40.078 Y2.147 E10.95388
G1 X40.546 Y1.957 E10.97908
G1 X41.039 Y1.844 E11.00431
G1 X41.509 Y1.809 E11.02782
G1 X48.491 Y1.81 E11.37616
G1 X48.995 Y1.85 E11.40138
G1 X49.487 Y1.969 E11.42664
G1 X49.953 Y2.164 E11.45184
G1 X50.383 Y2.43 E11.47706
G1 X50.766 Y2.76 E11.50229
G1 X51.092 Y3.146 E11.52749
G1 X51.353 Y3.579 E11.55272
G1 X51.543 Y4.048 E11.57796
G1 X51.656 Y4.54 E11.60315
G1 X51.691 Y5.01 E11.62666
G1 X51.691 Y94.991 E16.11583
G1 X51.651 Y95.495 E16.14105
G1 X51.532 Y95.986 E16.16626
G1 X51.338 Y96.453 E16.19149
G1 X51.072 Y96.883 E16.21671
G1 X50.742 Y97.266 E16.24194
G1 X50.355 Y97.592 E16.26718
G1 X49.922 Y97.853 E16.2924
G1 X49.454 Y98.043 E16.3176
G1 X48.961 Y98.156 E16.34284
G1 X48.491 Y98.191 E16.36635
G1 X41.509 Y98.191 E16.71468
G1 X41.005 Y98.151 E16.73991
G1 X40.514 Y98.032 E16.76511
G1 X40.047 Y97.838 E16.79034
G1 X39.617 Y97.572 E16.81557
G1 X39.234 Y97.242 E16.84079
G1 X38.908 Y96.855 E16.86604
G1 X38.647 Y96.422 E16.89126
G1 X38.457 Y95.954 E16.91646
G1 X38.344 Y95.461 E16.94169
G1 X38.309 Y94.991 E16.96521
G1 X38.309 Y5.009 E21.45443
G1 X38.349 Y4.505 E21.47965
G1 F1500 E14.97965
;MESH:uzanti.3mf
G0 F3600 X40.835 Y5.614
G0 X42.114 Y5.614
G0 X44.848 Y40.705
G0 X44.858 Y40.804
;TYPE:WALL-INNER
G1 F1500 E21.47965
G1 F1200 X44.552 Y40.859 E21.49516
G1 X44.379 Y40.917 E21.50426
G1 X44.225 Y40.986 E21.51268
G1 X44.076 Y41.072 E21.52127
G1 X43.938 Y41.172 E21.52977
G1 X43.813 Y41.283 E21.53811
G1 X43.699 Y41.405 E21.54644
G1 X43.594 Y41.541 E21.55501
G1 X43.506 Y41.687 E21.56352
G1 X43.431 Y41.84 E21.57202
G1 X43.375 Y42.001 E21.58052
G1 X43.334 Y42.161 E21.58876
G1 X43.307 Y42.33 E21.5973
G1 X43.3 Y42.5 E21.60579
G1 X43.307 Y42.67 E21.61428
G1 X43.334 Y42.839 E21.62281
G1 X43.375 Y42.999 E21.63106
G1 X43.431 Y43.16 E21.63956
G1 X43.506 Y43.313 E21.64806
G1 X43.594 Y43.459 E21.65657
G1 X43.699 Y43.595 E21.66514
G1 X43.813 Y43.717 E21.67347
G1 X43.938 Y43.828 E21.68181
G1 X44.076 Y43.928 E21.69031
G1 X44.225 Y44.014 E21.69889
G1 X44.378 Y44.083 E21.70727
G1 X44.54 Y44.138 E21.7158
G1 X44.704 Y44.174 E21.72418
G1 X44.871 Y44.196 E21.73258
G1 X45.043 Y44.2 E21.74117
G1 X45.214 Y44.187 E21.74972
G1 X45.378 Y44.157 E21.75804
G1 X45.539 Y44.113 E21.76637
G1 X45.699 Y44.051 E21.77493
G1 X45.85 Y43.973 E21.78341
G1 X45.992 Y43.882 E21.79182
G1 X46.127 Y43.775 E21.80041
G1 X46.247 Y43.656 E21.80885
G1 X46.354 Y43.529 E21.81713
G1 X46.452 Y43.387 E21.82574
G1 X46.533 Y43.237 E21.83424
G1 X46.599 Y43.081 E21.84269
G1 X46.648 Y42.919 E21.85114
G1 X46.682 Y42.755 E21.85949
G1 X46.699 Y42.585 E21.86802
G1 X46.699 Y42.415 E21.8765
G1 X46.682 Y42.245 E21.88502
G1 X46.648 Y42.081 E21.89338
G1 X46.599 Y41.919 E21.90182
G1 X46.533 Y41.763 E21.91027
G1 X46.452 Y41.613 E21.91878
G1 X46.354 Y41.471 E21.92739
G1 X46.247 Y41.344 E21.93567
G1 X46.127 Y41.225 E21.9441
G1 X45.992 Y41.118 E21.9527
G1 X45.85 Y41.027 E21.96111
G1 X45.699 Y40.949 E21.96959
G1 X45.539 Y40.887 E21.97815
G1 X45.378 Y40.843 E21.98648
G1 X45.214 Y40.813 E21.9948
G1 X45.043 Y40.8 E22.00335
G1 X44.858 Y40.804 E22.01258
G0 F3600 X44.848 Y40.705
G0 X44.055 Y41.039
G0 X43.561 Y41.519
G0 X43.293 Y42.164
G0 X43.293 Y42.836
G0 X46.676 Y78.069
G0 X46.509 Y78.734
G0 X46.17 Y79.183
G0 X45.528 Y79.685
G0 X45.493 Y79.593
G1 F1200 X45.777 Y79.464 E22.02815
G1 X45.929 Y79.366 E22.03717
G1 X46.065 Y79.259 E22.0458
G1 X46.186 Y79.14 E22.05427
G1 X46.296 Y79.01 E22.06276
G1 X46.39 Y78.869 E22.07122
G1 X46.471 Y78.722 E22.07959
G1 X46.536 Y78.567 E22.08798
G1 X46.587 Y78.405 E22.09645
G1 X46.621 Y78.236 E22.10505
G1 X46.637 Y78.067 E22.11352
G1 X46.637 Y77.901 E22.1218
G1 X46.621 Y77.733 E22.13022
G1 X46.584 Y77.548 E22.13963
G1 X46.478 Y77.258 E22.15504
G1 X46.39 Y77.097 E22.16419
G1 X46.295 Y76.957 E22.17263
G1 X46.186 Y76.828 E22.18106
G1 X46.066 Y76.709 E22.18949
G1 X45.931 Y76.602 E22.19809
G1 X45.789 Y76.511 E22.2065
G1 X45.638 Y76.433 E22.21498
G1 X45.481 Y76.371 E22.2234
G1 X45.319 Y76.326 E22.23179
G1 X45.15 Y76.295 E22.24036
G1 X44.98 Y76.284 E22.24886
G1 X44.797 Y76.288 E22.25799
G1 X44.491 Y76.343 E22.2735
G1 X44.318 Y76.401 E22.28261
G1 X44.164 Y76.47 E22.29102
G1 X44.017 Y76.555 E22.2995
G1 X43.878 Y76.654 E22.30801
G1 X43.751 Y76.767 E22.31649
G1 X43.637 Y76.89 E22.32486
G1 X43.533 Y77.025 E22.33336
G1 X43.445 Y77.171 E22.34186
G1 X43.37 Y77.324 E22.35037
G1 X43.314 Y77.485 E22.35887
G1 X43.273 Y77.645 E22.36711
G1 X43.246 Y77.814 E22.37565
G1 X43.239 Y77.984 E22.38414
G1 X43.246 Y78.153 E22.39258
G1 X43.273 Y78.322 E22.40111
G1 X43.314 Y78.483 E22.4094
G1 X43.37 Y78.644 E22.41791
G1 X43.446 Y78.798 E22.42648
G1 X43.533 Y78.942 E22.43487
G1 X43.637 Y79.078 E22.44341
G1 X43.752 Y79.201 E22.45181
G1 X43.877 Y79.312 E22.46015
G1 X44.015 Y79.412 E22.46865
G1 X44.164 Y79.498 E22.47724
G1 X44.317 Y79.567 E22.48561
G1 X44.479 Y79.622 E22.49415
G1 X44.644 Y79.658 E22.50257
G1 X44.827 Y79.682 E22.51178
G1 X45.137 Y79.674 E22.52725
G1 X45.316 Y79.642 E22.53632
G1 X45.493 Y79.593 E22.54549
G0 F3600 X45.528 Y79.685
G0 X46.503 Y92.144
G0 X46.414 Y92.187
G1 F1200 X46.246 Y91.91 E22.56165
G1 X46.127 Y91.769 E22.57085
G1 X46.006 Y91.65 E22.57932
G1 X45.871 Y91.543 E22.58791
G1 X45.729 Y91.452 E22.59633
G1 X45.58 Y91.376 E22.60467
G1 X45.422 Y91.312 E22.61318
G1 X45.257 Y91.267 E22.62171
G1 X45.092 Y91.237 E22.63008
G1 X44.923 Y91.226 E22.63853
G1 X44.741 Y91.229 E22.64761
G1 X44.432 Y91.283 E22.66326
G1 X44.259 Y91.342 E22.67238
G1 X44.105 Y91.411 E22.6808
G1 X43.956 Y91.497 E22.68938
G1 X43.818 Y91.597 E22.69788
G1 X43.693 Y91.708 E22.70622
G1 X43.578 Y91.831 E22.71462
G1 X43.474 Y91.967 E22.72316
G1 X43.387 Y92.111 E22.73156
G1 X43.311 Y92.265 E22.74012
G1 X43.255 Y92.426 E22.74863
G1 X43.214 Y92.587 E22.75692
G1 X43.187 Y92.756 E22.76546
G1 X43.18 Y92.925 E22.77389
G1 X43.187 Y93.095 E22.78238
G1 X43.214 Y93.264 E22.79092
G1 X43.255 Y93.424 E22.79916
G1 X43.311 Y93.585 E22.80767
G1 X43.386 Y93.738 E22.81617
G1 X43.474 Y93.884 E22.82467
G1 X43.567 Y94.004 E22.83225
G1 X43.578 Y94.019 E22.83317
G1 X43.692 Y94.142 E22.84154
G1 X43.819 Y94.255 E22.85002
G1 X43.958 Y94.354 E22.85854
G1 X44.038 Y94.4 E22.86314
G1 X43.958 Y94.4 E22.86323
G1 X43.819 Y94.4 E22.86456
G1 X43.692 Y94.4 E22.86746
G1 X43.578 Y94.4 E22.87044
G1 X43.559 Y94.4 E22.87137
G1 X42.1 Y94.4 E22.94416
G1 X42.1 Y5.6 E27.37441
G1 X43.676 Y5.6 E27.45304
G1 X43.698 Y5.6 E27.45413
G1 X43.812 Y5.6 E27.45982
G1 X43.939 Y5.6 E27.46616
G1 X44.078 Y5.6 E27.47309
G1 X44.152 Y5.6 E27.47678
G1 X44.078 Y5.643 E27.47739
G1 X43.939 Y5.742 E27.48023
G1 X43.812 Y5.855 E27.48519
G1 X43.698 Y5.978 E27.49221
G1 X43.685 Y5.995 E27.49325
G1 X43.594 Y6.113 E27.50068
G1 X43.506 Y6.259 E27.50919
G1 X43.433 Y6.41 E27.51756
G1 X43.374 Y6.572 E27.52616
G1 X43.334 Y6.735 E27.53453
G1 X43.307 Y6.902 E27.54297
G1 X43.3 Y7.072 E27.55146
G1 X43.307 Y7.241 E27.5599
G1 X43.334 Y7.41 E27.56844
G1 X43.375 Y7.571 E27.57672
G1 X43.431 Y7.732 E27.58523
G1 X43.507 Y7.886 E27.5938
G1 X43.594 Y8.03 E27.60219
G1 X43.698 Y8.166 E27.61073
G1 X43.813 Y8.289 E27.61913
G1 X43.938 Y8.4 E27.62747
G1 X44.076 Y8.5 E27.63597
G1 X44.225 Y8.586 E27.64456
G1 X44.378 Y8.655 E27.65293
G1 X44.54 Y8.71 E27.66147
G1 X44.705 Y8.746 E27.66989
G1 X44.888 Y8.77 E27.6791
G1 X45.198 Y8.762 E27.69457
G1 X45.38 Y8.729 E27.7038
G1 X45.542 Y8.684 E27.71219
G1 X45.698 Y8.622 E27.72056
G1 X45.849 Y8.545 E27.72902
G1 X45.993 Y8.453 E27.73754
G1 X46.127 Y8.346 E27.7461
G1 X46.247 Y8.228 E27.7545
G1 X46.355 Y8.099 E27.76289
G1 X46.452 Y7.958 E27.77143
G1 X46.532 Y7.81 E27.77982
G1 X46.598 Y7.654 E27.78827
G1 X46.648 Y7.491 E27.79678
G1 X46.682 Y7.327 E27.80513
G1 X46.699 Y7.157 E27.81366
G1 X46.699 Y6.987 E27.82214
G1 X46.682 Y6.818 E27.83061
G1 X46.648 Y6.652 E27.83907
G1 X46.599 Y6.492 E27.84742
G1 X46.534 Y6.335 E27.85589
G1 X46.451 Y6.183 E27.86453
G1 X46.354 Y6.042 E27.87307
G1 X46.305 Y5.984 E27.87686
G1 X46.247 Y5.916 E27.88132
G1 X46.127 Y5.797 E27.88975
G1 X45.992 Y5.69 E27.89834
G1 X45.852 Y5.6 E27.90665
G1 X45.992 Y5.6 E27.90712
G1 X46.127 Y5.6 E27.90922
G1 X46.247 Y5.6 E27.9117
G1 X46.337 Y5.6 E27.91576
G1 X47.9 Y5.6 E27.99374
G1 X47.9 Y94.4 E32.42399
G1 X46.214 Y94.4 E32.5081
G1 X46.127 Y94.4 E32.51244
G1 X46.007 Y94.4 E32.51843
G1 X45.872 Y94.4 E32.52517
G1 X45.726 Y94.4 E32.53245
G1 X45.872 Y94.307 E32.53434
G1 X46.007 Y94.2 E32.53834
G1 X46.127 Y94.081 E32.54443
G1 X46.183 Y94.015 E32.54835
G1 X46.236 Y93.952 E32.55246
G1 X46.331 Y93.812 E32.5609
G1 X46.413 Y93.662 E32.56943
G1 X46.477 Y93.507 E32.57779
G1 X46.528 Y93.347 E32.58617
G1 X46.562 Y93.176 E32.59487
G1 X46.578 Y93.008 E32.60329
G1 X46.578 Y92.842 E32.61157
G1 X46.562 Y92.674 E32.61999
G1 X46.525 Y92.49 E32.62935
G1 X46.414 Y92.187 E32.64545
G0 F3600 X46.052 Y92.361
;TYPE:WALL-OUTER
G1 F1200 X45.92 Y92.144 E32.65813
G1 X45.833 Y92.041 E32.66485
G1 X45.741 Y91.95 E32.67131
G1 X45.638 Y91.869 E32.67785
G1 X45.53 Y91.799 E32.68427
G1 X45.415 Y91.741 E32.69069
G1 X45.294 Y91.692 E32.69721
G1 X45.169 Y91.658 E32.70367
G1 X45.042 Y91.635 E32.71011
G1 X44.912 Y91.626 E32.71661
G1 X44.779 Y91.628 E32.72324
G1 X44.532 Y91.672 E32.73576
G1 X44.405 Y91.715 E32.74245
G1 X44.287 Y91.768 E32.7489
G1 X44.174 Y91.833 E32.75541
G1 X44.069 Y91.909 E32.76187
G1 X43.972 Y91.995 E32.76834
G1 X43.884 Y92.089 E32.77477
G1 X43.805 Y92.193 E32.78128
G1 X43.738 Y92.303 E32.78771
G1 X43.681 Y92.42 E32.7942
G1 X43.638 Y92.542 E32.80065
G1 X43.606 Y92.667 E32.80709
G1 X43.586 Y92.796 E32.8136
G1 X43.58 Y92.925 E32.82005
G1 X43.586 Y93.055 E32.82654
G1 X43.606 Y93.183 E32.833
G1 X43.638 Y93.308 E32.83944
G1 X43.681 Y93.43 E32.84589
G1 X43.738 Y93.547 E32.85239
G1 X43.805 Y93.658 E32.85886
G1 X43.884 Y93.761 E32.86533
G1 X43.972 Y93.856 E32.87179
G1 X44.069 Y93.942 E32.87826
G1 X44.174 Y94.017 E32.8847
G1 X44.287 Y94.082 E32.8912
G1 X44.405 Y94.135 E32.89765
G1 X44.528 Y94.177 E32.90414
G1 X44.654 Y94.205 E32.91058
G1 X44.782 Y94.222 E32.91702
G1 X44.912 Y94.225 E32.92351
G1 X45.042 Y94.216 E32.93001
G1 X45.17 Y94.193 E32.9365
G1 X45.294 Y94.158 E32.94293
G1 X45.414 Y94.111 E32.94936
G1 X45.53 Y94.051 E32.95587
G1 X45.639 Y93.981 E32.96233
G1 X45.741 Y93.9 E32.96883
G1 X45.833 Y93.809 E32.97529
G1 X45.917 Y93.71 E32.98177
G1 X45.989 Y93.603 E32.9882
G1 X46.052 Y93.489 E32.9947
G1 X46.101 Y93.37 E33.00112
G1 X46.14 Y93.247 E33.00756
G1 X46.166 Y93.118 E33.01412
G1 X46.178 Y92.989 E33.02058
G1 X46.178 Y92.861 E33.02697
G1 X46.166 Y92.732 E33.03343
G1 X46.139 Y92.599 E33.04021
G1 X46.052 Y92.361 E33.05285
G0 F3600 X45.948 Y92.19
G0 X46.376 Y91.933
G0 X47.83 Y94.33
G0 X48.3 Y94.8
G1 F1200 X41.7 Y94.8 E33.38212
G1 X41.7 Y5.2 E37.85229
G1 X48.3 Y5.2 E38.18156
G1 X48.3 Y94.8 E42.65172
G0 F3600 X48.1 Y94.8
G0 X47.83 Y94.33
G0 X45.562 Y79.671
G0 X45.357 Y79.216
G1 F1200 X45.585 Y79.112 E42.66423
G1 X45.697 Y79.04 E42.67087
G1 X45.8 Y78.959 E42.67741
G1 X45.892 Y78.868 E42.68386
G1 X45.976 Y78.769 E42.69034
G1 X46.048 Y78.661 E42.69681
G1 X46.11 Y78.548 E42.70324
G1 X46.16 Y78.429 E42.70968
G1 X46.199 Y78.305 E42.71617
G1 X46.225 Y78.177 E42.72269
G1 X46.237 Y78.048 E42.72915
G1 X46.237 Y77.92 E42.73554
G1 X46.225 Y77.791 E42.742
G1 X46.198 Y77.657 E42.74882
G1 X46.113 Y77.424 E42.76119
G1 X46.048 Y77.306 E42.76791
G1 X45.976 Y77.199 E42.77435
G1 X45.892 Y77.1 E42.78083
G1 X45.8 Y77.009 E42.78728
G1 X45.698 Y76.928 E42.79378
G1 X45.589 Y76.858 E42.80024
G1 X45.473 Y76.798 E42.80676
G1 X45.353 Y76.751 E42.81319
G1 X45.229 Y76.716 E42.81962
G1 X45.101 Y76.693 E42.8261
G1 X44.971 Y76.684 E42.83261
G1 X44.837 Y76.687 E42.83929
G1 X44.591 Y76.731 E42.85176
G1 X44.464 Y76.774 E42.85845
G1 X44.346 Y76.827 E42.8649
G1 X44.233 Y76.892 E42.87141
G1 X44.128 Y76.967 E42.87784
G1 X44.031 Y77.053 E42.88431
G1 X43.943 Y77.148 E42.89077
G1 X43.864 Y77.251 E42.89725
G1 X43.797 Y77.362 E42.90372
G1 X43.74 Y77.479 E42.91021
G1 X43.697 Y77.601 E42.91666
G1 X43.665 Y77.726 E42.9231
G1 X43.645 Y77.854 E42.92956
G1 X43.639 Y77.984 E42.93606
G1 X43.645 Y78.113 E42.9425
G1 X43.665 Y78.242 E42.94901
G1 X43.697 Y78.367 E42.95545
G1 X43.74 Y78.489 E42.9619
G1 X43.797 Y78.606 E42.9684
G1 X43.864 Y78.716 E42.97482
G1 X43.943 Y78.82 E42.98134
G1 X44.031 Y78.914 E42.98776
G1 X44.128 Y79 E42.99423
G1 X44.233 Y79.076 E43.0007
G1 X44.346 Y79.141 E43.0072
G1 X44.464 Y79.194 E43.01365
G1 X44.587 Y79.236 E43.02014
G1 X44.713 Y79.264 E43.02658
G1 X44.847 Y79.281 E43.03332
G1 X45.096 Y79.275 E43.04574
G1 X45.228 Y79.251 E43.05244
G1 X45.357 Y79.216 E43.0591
G0 F3600 X45.539 Y79.133
G0 X45.745 Y79.588
G0 X46.329 Y79.032
G0 X46.626 Y78.411
G0 X46.66 Y77.728
G0 X43.269 Y42.321
G0 X43.475 Y41.66
G0 X43.919 Y41.137
G0 X44.273 Y40.959
G0 X44.888 Y40.703
G0 X44.898 Y41.203
G1 F1200 X44.652 Y41.247 E43.07157
G1 X44.525 Y41.29 E43.07826
G1 X44.407 Y41.343 E43.08472
G1 X44.294 Y41.408 E43.09122
G1 X44.189 Y41.484 E43.09769
G1 X44.092 Y41.57 E43.10415
G1 X44.004 Y41.664 E43.11058
G1 X43.925 Y41.767 E43.11705
G1 X43.858 Y41.878 E43.12352
G1 X43.801 Y41.995 E43.13001
G1 X43.758 Y42.117 E43.13647
G1 X43.726 Y42.242 E43.14291
G1 X43.706 Y42.37 E43.14937
G1 X43.7 Y42.5 E43.15586
G1 X43.706 Y42.63 E43.16235
G1 X43.726 Y42.758 E43.16882
G1 X43.758 Y42.883 E43.17526
G1 X43.801 Y43.005 E43.18171
G1 X43.858 Y43.122 E43.1882
G1 X43.925 Y43.233 E43.19467
G1 X44.004 Y43.336 E43.20115
G1 X44.092 Y43.43 E43.20757
G1 X44.189 Y43.516 E43.21404
G1 X44.294 Y43.592 E43.2205
G1 X44.407 Y43.657 E43.22701
G1 X44.525 Y43.71 E43.23346
G1 X44.648 Y43.752 E43.23995
G1 X44.774 Y43.78 E43.24639
G1 X44.902 Y43.797 E43.25283
G1 X45.032 Y43.8 E43.25932
G1 X45.163 Y43.79 E43.26587
G1 X45.289 Y43.767 E43.27226
G1 X45.413 Y43.733 E43.27867
G1 X45.534 Y43.686 E43.28515
G1 X45.65 Y43.626 E43.29167
G1 X45.759 Y43.556 E43.29813
G1 X45.861 Y43.475 E43.30463
G1 X45.953 Y43.384 E43.31108
G1 X46.036 Y43.286 E43.31749
G1 X46.11 Y43.178 E43.32402
G1 X46.172 Y43.064 E43.3305
G1 X46.222 Y42.945 E43.33694
G1 X46.26 Y42.82 E43.34345
G1 X46.286 Y42.694 E43.34987
G1 X46.299 Y42.565 E43.35634
G1 X46.299 Y42.435 E43.36283
G1 X46.286 Y42.306 E43.3693
G1 X46.26 Y42.18 E43.37571
G1 X46.222 Y42.055 E43.38223
G1 X46.172 Y41.936 E43.38867
G1 X46.11 Y41.822 E43.39515
G1 X46.036 Y41.714 E43.40168
G1 X45.953 Y41.616 E43.40808
G1 X45.861 Y41.525 E43.41454
G1 X45.759 Y41.444 E43.42104
G1 X45.65 Y41.374 E43.4275
