;FLAVOR:Marlin
;TIME:815
;Filament used: 0.53893m
;Layer height: 0.2
;Generated with Cura_SteamEngine 3.6.0
M104 S200
M105
M109 S200
M82 ;absolute extrusion mode
G28 ;Home
G1 Z15.0 F6000 ;Move the platform down 15mm
;Prime the extruder
G92 E0
G1 F200 E3
G92 E0
G92 E0
G1 F1500 E-6.5
;LAYER_COUNT:18
;LAYER:0
M107
G0 F3600 X25.223 Y31.025 Z0.3
;TYPE:SKIRT
G1 F1500 E0
G1 F1200 X25.665 Y30.721 E0.02676
G1 X26.148 Y30.487 E0.05354
G1 X26.659 Y30.327 E0.08025
G1 X27.189 Y30.244 E0.10702
G1 X27.465 Y30.233 E0.1208
G1 X30.348 Y30.224 E0.26463
G1 X30.658 Y30.236 E0.28011
G1 X36.056 Y30.685 E0.55035
G1 X38.706 Y30.835 E0.68277
G1 X52.089 Y30.934 E1.35047
G1 X52.623 Y30.978 E1.3772
G1 X53.145 Y31.101 E1.40395
G1 X53.643 Y31.3 E1.43071
G1 X54.106 Y31.571 E1.45748
G1 X54.367 Y31.769 E1.47382
G1 X58.926 Y35.569 E1.76992
G1 X63.296 Y38.798 E2.041
G1 X67.898 Y41.811 E2.31543
G1 X69.613 Y42.845 E2.41534
G1 X70.05 Y43.155 E2.44207
G1 X70.437 Y43.527 E2.46885
G1 X70.763 Y43.952 E2.49557
G1 X71.024 Y44.421 E2.52235
G1 X71.211 Y44.924 E2.54912
G1 X71.322 Y45.449 E2.57589
G1 X71.354 Y45.927 E2.59979
G1 X71.356 Y55.414 E3.0731
G1 X71.316 Y55.949 E3.09987
G1 X71.197 Y56.472 E3.12663
G1 X71.002 Y56.971 E3.15335
G1 X70.735 Y57.436 E3.18011
G1 X70.402 Y57.857 E3.20689
G1 X70.009 Y58.222 E3.23364
G1 X69.68 Y58.458 E3.25384
G1 X64.362 Y61.821 E3.56776
G1 X59.947 Y64.995 E3.83904
G1 X54.347 Y69.596 E4.20063
G1 X53.909 Y69.904 E4.22734
G1 X53.429 Y70.144 E4.25412
G1 X52.919 Y70.31 E4.28087
G1 X52.151 Y70.413 E4.31953
G1 X45.555 Y70.577 E4.64871
G1 X40.15 Y71.029 E4.91931
G1 X34.669 Y71.802 E5.19546
G1 X31.344 Y72.372 E5.36377
G1 X30.726 Y72.424 E5.39471
G1 X27.465 Y72.415 E5.5574
G1 X26.93 Y72.374 E5.58417
G1 X26.408 Y72.253 E5.6109
G1 X25.909 Y72.056 E5.63767
G1 X25.445 Y71.788 E5.6644
G1 X25.026 Y71.453 E5.69116
G1 X24.661 Y71.06 E5.71792
G1 X24.359 Y70.617 E5.74467
G1 X24.125 Y70.134 E5.77145
G1 X23.967 Y69.622 E5.79818
G1 X23.886 Y69.092 E5.82493
G1 X23.875 Y68.815 E5.83876
G1 X23.876 Y33.833 E7.58402
G1 X23.916 Y33.298 E7.61078
G1 X24.035 Y32.775 E7.63754
G1 X24.23 Y32.276 E7.66427
G1 X24.498 Y31.811 E7.69105
G1 X24.831 Y31.391 E7.71779
G1 X25.223 Y31.025 E7.74455
G0 F3600 X25.612 Y31.232
G1 F1200 X26.045 Y30.971 E7.76977
G1 X26.513 Y30.781 E7.79497
G1 X27.006 Y30.668 E7.8202
G1 X27.466 Y30.633 E7.84322
G1 X30.349 Y30.624 E7.98705
G1 X30.624 Y30.635 E8.00078
G1 X35.997 Y31.082 E8.26977
G1 X38.701 Y31.235 E8.40489
G1 X52.086 Y31.334 E9.07269
G1 X52.589 Y31.378 E9.09788
G1 X53.08 Y31.5 E9.12312
G1 X53.545 Y31.698 E9.14833
G1 X54.111 Y32.076 E9.18229
G1 X58.67 Y35.876 E9.47839
G1 X63.085 Y39.138 E9.75225
G1 X67.693 Y42.155 E10.02704
G1 X69.406 Y43.188 E10.12684
G1 X69.817 Y43.482 E10.15205
G1 X70.177 Y43.837 E10.17727
G1 X70.476 Y44.245 E10.20251
G1 X70.707 Y44.695 E10.22774
G1 X70.864 Y45.175 E10.25294
G1 X70.944 Y45.675 E10.2782
G1 X70.954 Y45.927 E10.29078
G1 X70.956 Y55.414 E10.76409
G1 X70.916 Y55.918 E10.78932
G1 X70.797 Y56.41 E10.81457
G1 X70.603 Y56.876 E10.83975
G1 X70.337 Y57.306 E10.86498
G1 X70.007 Y57.689 E10.8902
G1 X69.466 Y58.12 E10.92471
G1 X64.132 Y61.493 E11.23957
G1 X59.709 Y64.673 E11.51134
G1 X54.093 Y69.287 E11.87396
G1 X53.678 Y69.576 E11.89919
G1 X53.223 Y69.796 E11.92441
G1 X52.739 Y69.942 E11.94963
G1 X52.141 Y70.013 E11.97967
G1 X45.546 Y70.177 E12.3088
G1 X40.095 Y70.633 E12.5817
G1 X34.611 Y71.407 E12.85801
G1 X31.276 Y71.978 E13.02682
G1 X30.727 Y72.024 E13.0543
G1 X27.466 Y72.015 E13.21699
G1 X26.962 Y71.974 E13.24222
G1 X26.471 Y71.853 E13.26745
G1 X26.005 Y71.657 E13.29267
G1 X25.576 Y71.391 E13.31786
G1 X25.194 Y71.059 E13.34311
G1 X24.869 Y70.672 E13.36832
G1 X24.609 Y70.238 E13.39356
G1 X24.421 Y69.769 E13.41877
G1 X24.308 Y69.276 E13.444
G1 X24.275 Y68.815 E13.46706
G1 X24.276 Y33.833 E15.21232
G1 X24.316 Y33.329 E15.23754
G1 X24.435 Y32.838 E15.26275
G1 X24.63 Y32.371 E15.288
G1 X24.895 Y31.941 E15.31319
G1 X25.226 Y31.558 E15.33845
G1 X25.612 Y31.232 E15.36366
G1 F1500 E8.86366
;MESH:z ve duz kol.3mf(5)
G0 F3600 X35.357 Y33.859
G0 X35.357 Y35.131
G0 X35.576 Y35.327
G0 X35.978 Y35.969
G0 X35.882 Y35.993
;TYPE:WALL-INNER
G1 F1500 E15.36366
G1 F1200 X35.765 Y35.674 E15.38061
G1 X35.655 Y35.493 E15.39118
G1 X35.597 Y35.397 E15.39677
G1 X35.477 Y35.255 E15.40605
G1 X35.34 Y35.124 E15.4155
G1 X35.477 Y35.124 E15.41602
G1 X35.597 Y35.124 E15.41764
G1 X35.709 Y35.124 E15.42246
G1 X47.941 Y35.124 E16.03271
G1 X47.941 Y37.524 E16.15245
G1 X35.783 Y37.524 E16.75901
G1 X35.763 Y37.524 E16.76001
G1 X35.682 Y37.524 E16.76405
G1 X35.588 Y37.524 E16.76874
G1 X35.516 Y37.524 E16.77233
G1 X35.588 Y37.439 E16.77416
G1 X35.682 Y37.298 E16.77902
G1 X35.763 Y37.151 E16.78602
G1 X35.77 Y37.133 E16.78695
G1 X35.828 Y36.995 E16.79442
G1 X35.879 Y36.831 E16.80299
G1 X35.912 Y36.664 E16.81148
G1 X35.929 Y36.497 E16.81986
G1 X35.929 Y36.314 E16.82899
G1 X35.882 Y35.993 E16.84517
G0 F3600 X35.492 Y36.092
;TYPE:WALL-OUTER
G1 F1200 X35.403 Y35.848 E16.85813
G1 X35.271 Y35.631 E16.8708
G1 X35.184 Y35.528 E16.87753
G1 X35.092 Y35.438 E16.88395
G1 X34.99 Y35.356 E16.89048
G1 X34.881 Y35.286 E16.89694
G1 X34.765 Y35.227 E16.90344
G1 X34.645 Y35.18 E16.90986
G1 X34.52 Y35.145 E16.91634
G1 X34.402 Y35.123 E16.92233
G1 X34.392 Y35.122 E16.92283
G1 X34.263 Y35.113 E16.92928
G1 X34.134 Y35.116 E16.93572
G1 X34.068 Y35.123 E16.93903
G1 X34.001 Y35.132 E16.9424
G1 X33.76 Y35.201 E16.95491
G1 X33.638 Y35.255 E16.96157
G1 X33.526 Y35.319 E16.968
G1 X33.42 Y35.396 E16.97454
G1 X33.358 Y35.451 E16.97867
G1 X33.323 Y35.482 E16.98101
G1 X33.235 Y35.576 E16.98743
G1 X33.156 Y35.68 E16.99395
G1 X33.089 Y35.79 E17.00037
G1 X33.032 Y35.907 E17.00686
G1 X32.988 Y36.03 E17.01338
G1 X32.966 Y36.119 E17.01796
G1 X32.966 Y36.03 E17.01805
G1 X32.966 Y35.907 E17.01866
G1 X32.966 Y35.79 E17.01993
G1 X32.966 Y35.68 E17.02194
G1 X32.966 Y35.576 E17.0242
G1 X32.966 Y35.482 E17.0269
G1 X32.966 Y35.435 E17.02913
G1 X32.966 Y34.724 E17.0646
G1 X34.068 Y34.724 E17.11958
G1 X34.134 Y34.724 E17.12284
G1 X34.263 Y34.724 E17.12912
G1 X34.392 Y34.724 E17.13545
G1 X34.403 Y34.724 E17.136
G1 X48.341 Y34.724 E17.83137
G1 X48.341 Y37.924 E17.99102
G1 X34.906 Y37.924 E18.66129
G1 X34.881 Y37.924 E18.66254
G1 X34.765 Y37.924 E18.66833
G1 X34.645 Y37.924 E18.67431
G1 X34.52 Y37.924 E18.68055
G1 X34.392 Y37.924 E18.68694
G1 X34.263 Y37.924 E18.69337
G1 X34.134 Y37.924 E18.69981
G1 X34.005 Y37.924 E18.70624
G1 X33.878 Y37.924 E18.71258
G1 X33.756 Y37.924 E18.71867
G1 X33.638 Y37.924 E18.72455
G1 X33.552 Y37.924 E18.72884
G1 X32.966 Y37.924 E18.75808
G1 X32.966 Y37.39 E18.78472
G1 X32.966 Y37.343 E18.78707
G1 X32.966 Y37.249 E18.79176
G1 X32.966 Y37.145 E18.79694
G1 X32.966 Y37.035 E18.80243
G1 X32.966 Y36.918 E18.80827
G1 X32.966 Y36.791 E18.81461
G1 X32.966 Y36.689 E18.81969
G1 X32.987 Y36.791 E18.8199
G1 X33.032 Y36.918 E18.82088
G1 X33.089 Y37.035 E18.8228
G1 X33.156 Y37.145 E18.82572
G1 X33.235 Y37.249 E18.82987
G1 X33.323 Y37.343 E18.83516
G1 X33.358 Y37.374 E18.83738
G1 X33.42 Y37.429 E18.84151
G1 X33.526 Y37.506 E18.84805
G1 X33.563 Y37.527 E18.85017
G1 X33.638 Y37.57 E18.85422
G1 X33.756 Y37.622 E18.85956
G1 X33.878 Y37.664 E18.86416
G1 X34.005 Y37.693 E18.8682
G1 X34.134 Y37.709 E18.87182
G1 X34.263 Y37.712 E18.87525
G1 X34.392 Y37.703 E18.87874
G1 X34.52 Y37.68 E18.88255
G1 X34.645 Y37.645 E18.88683
G1 X34.765 Y37.598 E18.89177
G1 X34.881 Y37.539 E18.8976
G1 X34.902 Y37.526 E18.89881
G1 X34.99 Y37.469 E18.90404
G1 X35.092 Y37.387 E18.91057
G1 X35.184 Y37.297 E18.91699
G1 X35.268 Y37.198 E18.92347
G1 X35.34 Y37.09 E18.92994
G1 X35.402 Y36.977 E18.93637
G1 X35.452 Y36.858 E18.94281
G1 X35.491 Y36.733 E18.94934
G1 X35.516 Y36.605 E18.95585
G1 X35.529 Y36.477 E18.96227
G1 X35.529 Y36.343 E18.96895
G1 X35.492 Y36.092 E18.98161
G0 F3600 X35.424 Y35.904
G0 X36.122 Y35.514
;TYPE:SKIN
G1 F1200 X47.551 Y35.514 E19.55181
G1 X47.551 Y37.134 E19.63263
G1 X36.193 Y37.134 E20.19928
G1 X36.257 Y36.927 E20.21009
G1 X36.298 Y36.722 E20.22052
G1 X36.319 Y36.517 E20.2308
G1 X36.319 Y36.285 E20.24238
G1 X36.262 Y35.897 E20.26194
G1 X36.122 Y35.514 E20.28229
G0 F3600 X36.498 Y36.498
G1 F1200 X36.952 Y36.952 E20.31432
G0 F3600 X37.518 Y36.952
G1 F1200 X36.439 Y35.873 E20.39045
G0 F3600 X36.825 Y35.694
G1 F1200 X38.084 Y36.952 E20.47924
G0 F3600 X38.649 Y36.952
G1 F1200 X37.391 Y35.694 E20.568
G0 F3600 X37.956 Y35.694
G1 F1200 X39.215 Y36.952 E20.6568
G0 F3600 X39.781 Y36.952
G1 F1200 X38.522 Y35.694 E20.74559
G0 F3600 X39.088 Y35.694
G1 F1200 X40.346 Y36.952 E20.83435
G0 F3600 X40.912 Y36.952
G1 F1200 X39.653 Y35.694 E20.92314
G0 F3600 X40.219 Y35.694
G1 F1200 X41.478 Y36.952 E21.01194
G0 F3600 X42.044 Y36.953
G1 F1200 X40.785 Y35.694 E21.10077
G0 F3600 X41.35 Y35.694
G1 F1200 X42.61 Y36.953 E21.18963
G0 F3600 X43.175 Y36.953
G1 F1200 X41.916 Y35.694 E21.27846
G0 F3600 X42.482 Y35.694
G1 F1200 X43.741 Y36.953 E21.36729
G0 F3600 X44.307 Y36.953
G1 F1200 X43.047 Y35.694 E21.45615
G0 F3600 X43.613 Y35.694
G1 F1200 X44.872 Y36.953 E21.54498
G0 F3600 X45.438 Y36.953
G1 F1200 X44.179 Y35.694 E21.63381
G0 F3600 X44.745 Y35.694
G1 F1200 X46.004 Y36.953 E21.72264
G0 F3600 X46.57 Y36.953
G1 F1200 X45.31 Y35.694 E21.81151
G0 F3600 X45.876 Y35.694
G1 F1200 X47.135 Y36.953 E21.90033
G0 F3600 X47.369 Y36.621
G1 F1200 X46.442 Y35.694 E21.96574
G0 F3600 X47.007 Y35.694
G1 F1200 X47.369 Y36.056 E21.99128
G1 F1500 E15.49128
;MESH:z ve duz kol.3mf(1)
G0 F3600 X47.927 Y37.51
G0 X49.08 Y37.53
G0 X51.396 Y46.574
G0 X51.466 Y46.504
;TYPE:WALL-INNER
G1 F1500 E21.99128
G1 F1200 X51.541 Y46.504 E21.99502
G1 X51.541 Y48.924 E22.11576
G1 X49.066 Y48.924 E22.23923
G1 X49.066 Y37.544 E22.80699
G1 X48.991 Y37.544 E22.81073
G1 X48.991 Y35.124 E22.93146
G1 X51.466 Y35.124 E23.05494
G1 X51.466 Y46.504 E23.62269
G0 F3600 X51.866 Y46.104
;TYPE:WALL-OUTER
G1 F1200 X51.941 Y46.104 E23.62643
G1 X51.941 Y49.324 E23.78708
G1 X48.666 Y49.324 E23.95047
G1 X48.666 Y37.944 E24.51822
G1 X48.591 Y37.944 E24.52196
G1 X48.591 Y34.724 E24.68261
G1 X51.866 Y34.724 E24.846
G1 X51.866 Y46.104 E25.41375
G0 F3600 X51.941 Y46.104
G0 X51.941 Y46.229
G0 X51.366 Y46.229
G0 X51.151 Y46.894
;TYPE:SKIN
G1 F1200 X51.151 Y48.534 E25.49557
G1 X49.456 Y48.534 E25.58013
G1 X49.456 Y37.154 E26.14788
G1 X49.381 Y37.154 E26.15162
G1 X49.381 Y35.514 E26.23344
G1 X51.076 Y35.514 E26.31801
G1 X51.076 Y46.894 E26.88576
G1 X51.151 Y46.894 E26.8895
G0 F3600 X50.051 Y48.354
G1 F1200 X49.635 Y47.938 E26.91885
G0 F3600 X49.635 Y47.372
G1 F1200 X50.616 Y48.354 E26.9881
G0 F3600 X50.97 Y48.141
G1 F1200 X49.635 Y46.806 E27.08229
G0 F3600 X49.635 Y46.241
G1 F1200 X50.97 Y47.576 E27.17648
G0 F3600 X50.895 Y46.935
G1 F1200 X49.635 Y45.675 E27.26538
G0 F3600 X49.635 Y45.109
G1 F1200 X50.895 Y46.369 E27.35428
G0 F3600 X50.895 Y45.804
G1 F1200 X49.635 Y44.544 E27.44318
G0 F3600 X49.635 Y43.978
G1 F1200 X50.895 Y45.238 E27.53208
G0 F3600 X50.895 Y44.672
G1 F1200 X49.635 Y43.412 E27.62098
G0 F3600 X49.635 Y42.847
G1 F1200 X50.895 Y44.107 E27.70988
G0 F3600 X50.895 Y43.541
G1 F1200 X49.635 Y42.281 E27.79878
G0 F3600 X49.635 Y41.715
G1 F1200 X50.895 Y42.975 E27.88768
G0 F3600 X50.895 Y42.41
G1 F1200 X49.635 Y41.15 E27.97658
G0 F3600 X49.635 Y40.584
G1 F1200 X50.895 Y41.844 E28.06548
G0 F3600 X50.895 Y41.278
G1 F1200 X49.635 Y40.018 E28.15438
G0 F3600 X49.635 Y39.453
G1 F1200 X50.895 Y40.713 E28.24328
G0 F3600 X50.895 Y40.147
G1 F1200 X49.635 Y38.887 E28.33218
G0 F3600 X49.635 Y38.321
G1 F1200 X50.895 Y39.581 E28.42108
G0 F3600 X50.895 Y39.016
G1 F1200 X49.635 Y37.755 E28.51002
G0 F3600 X49.635 Y37.19
G1 F1200 X50.895 Y38.45 E28.59892
G0 F3600 X50.895 Y37.884
G1 F1200 X49.56 Y36.549 E28.69311
G0 F3600 X49.56 Y35.983
G1 F1200 X50.895 Y37.318 E28.7873
G0 F3600 X50.895 Y36.753
G1 F1200 X49.836 Y35.694 E28.86202
G0 F3600 X50.401 Y35.694
G1 F1200 X50.895 Y36.187 E28.89684
G1 F1500 E22.39684
;MESH:z ve duz kol.3mf(3)
G0 F3600 X51.452 Y46.518
G0 X52.605 Y46.538
G0 X64.579 Y48.35
G0 X64.67 Y48.31
;TYPE:WALL-INNER
G1 F1500 E28.89684
G1 F1200 X64.796 Y48.54 E28.90992
G1 X64.819 Y48.582 E28.91231
G1 X64.93 Y48.728 E28.92146
G1 X65.045 Y48.852 E28.9299
G1 X65.126 Y48.924 E28.9353
G1 X65.045 Y48.924 E28.93533
G1 X64.93 Y48.924 E28.93674
G1 X64.819 Y48.924 E28.93875
G1 X64.771 Y48.924 E28.94099
G1 X52.591 Y48.924 E29.54866
G1 X52.591 Y46.524 E29.66839
G1 X64.658 Y46.524 E30.27042
G1 X64.74 Y46.524 E30.27451
G1 X64.827 Y46.524 E30.27885
G1 X64.947 Y46.524 E30.28484
G1 X64.827 Y46.677 E30.28879
G1 X64.74 Y46.821 E30.29473
G1 X64.704 Y46.894 E30.29834
G1 X64.664 Y46.975 E30.30285
G1 X64.608 Y47.136 E30.31136
G1 X64.567 Y47.297 E30.31964
G1 X64.54 Y47.466 E30.32818
G1 X64.533 Y47.635 E30.33662
G1 X64.541 Y47.819 E30.34581
G1 X64.603 Y48.122 E30.36124
G1 X64.67 Y48.31 E30.3712
G0 F3600 X64.579 Y48.35
G0 X65.125 Y46.881
G0 X65.252 Y46.248
G0 X66.123 Y46.239
G0 X66.132 Y46.338
;TYPE:WALL-OUTER
G1 F1200 X65.885 Y46.382 E30.38371
G1 X65.757 Y46.425 E30.39045
G1 X65.64 Y46.479 E30.39688
G1 X65.566 Y46.52 E30.4011
G1 X65.528 Y46.542 E30.40329
G1 X65.422 Y46.619 E30.40983
G1 X65.325 Y46.705 E30.41629
G1 X65.237 Y46.799 E30.42272
G1 X65.158 Y46.903 E30.42923
G1 X65.091 Y47.013 E30.43566
G1 X65.034 Y47.13 E30.44215
G1 X64.991 Y47.252 E30.44861
G1 X64.959 Y47.377 E30.45504
G1 X64.939 Y47.506 E30.46156
G1 X64.933 Y47.635 E30.468
G1 X64.939 Y47.77 E30.47474
G1 X64.989 Y48.014 E30.48717
G1 X65.036 Y48.145 E30.49411
G1 X65.156 Y48.364 E30.50657
G1 X65.237 Y48.471 E30.51326
G1 X65.325 Y48.566 E30.51973
G1 X65.422 Y48.652 E30.52619
G1 X65.527 Y48.727 E30.53263
G1 X65.64 Y48.792 E30.53913
G1 X65.758 Y48.845 E30.54559
G1 X65.88 Y48.887 E30.55203
G1 X66.007 Y48.916 E30.55852
G1 X66.072 Y48.925 E30.5618
G1 X66.136 Y48.932 E30.56501
G1 X66.265 Y48.935 E30.57145
G1 X66.395 Y48.926 E30.57795
G1 X66.405 Y48.925 E30.57845
G1 X66.523 Y48.903 E30.58444
G1 X66.647 Y48.868 E30.59087
G1 X66.767 Y48.821 E30.5973
G1 X66.883 Y48.762 E30.60379
G1 X66.992 Y48.692 E30.61025
G1 X67.094 Y48.61 E30.61678
G1 X67.17 Y48.536 E30.62207
G1 X67.186 Y48.52 E30.6232
G1 X67.269 Y48.421 E30.62965
G1 X67.343 Y48.313 E30.63618
G1 X67.404 Y48.2 E30.64259
G1 X67.455 Y48.081 E30.64905
G1 X67.493 Y47.956 E30.65556
G1 X67.519 Y47.829 E30.66203
G1 X67.532 Y47.7 E30.6685
G1 X67.532 Y47.571 E30.67493
G1 X67.519 Y47.441 E30.68145
G1 X67.493 Y47.315 E30.68787
G1 X67.454 Y47.186 E30.6946
G1 X67.346 Y46.962 E30.707
G1 X67.269 Y46.85 E30.71378
G1 X67.186 Y46.751 E30.72023
G1 X67.17 Y46.735 E30.72136
G1 X67.094 Y46.661 E30.72665
G1 X66.992 Y46.579 E30.73318
G1 X66.904 Y46.522 E30.73841
G1 X66.883 Y46.509 E30.73964
G1 X66.767 Y46.45 E30.74613
G1 X66.647 Y46.403 E30.75256
G1 X66.523 Y46.368 E30.75899
G1 X66.395 Y46.345 E30.76548
G1 X66.265 Y46.336 E30.77198
G1 X66.132 Y46.338 E30.77862
G0 F3600 X65.935 Y46.373
G0 X65.922 Y46.29
G0 X66.516 Y46.362
G0 X67.481 Y46.728
G0 X67.566 Y46.728
G1 F1200 X67.566 Y46.751 E30.77899
G1 X67.566 Y46.85 E30.78225
G1 X67.566 Y46.962 E30.78529
G1 X67.566 Y47.186 E30.78975
G1 X67.566 Y47.315 E30.7912
G1 X67.566 Y47.441 E30.79212
G1 X67.566 Y47.571 E30.79278
G1 X67.566 Y47.7 E30.79332
G1 X67.566 Y47.829 E30.79398
G1 X67.566 Y47.956 E30.79491
G1 X67.566 Y48.081 E30.7963
G1 X67.566 Y48.2 E30.79824
G1 X67.566 Y48.313 E30.80085
G1 X67.566 Y48.421 E30.8037
G1 X67.566 Y48.52 E30.807
G1 X67.566 Y48.543 E30.80812
G1 X67.566 Y49.324 E30.84709
G1 X66.406 Y49.324 E30.90496
G1 X66.395 Y49.324 E30.90551
G1 X66.265 Y49.324 E30.91189
G1 X66.136 Y49.324 E30.91817
G1 X66.072 Y49.324 E30.92133
G1 X52.191 Y49.324 E31.61386
G1 X52.191 Y46.124 E31.77351
G1 X65.555 Y46.124 E32.44024
G1 X65.64 Y46.124 E32.44425
G1 X65.757 Y46.124 E32.44901
G1 X65.885 Y46.124 E32.45345
G1 X66.132 Y46.124 E32.46071
G1 X66.265 Y46.124 E32.46424
G1 X66.395 Y46.124 E32.46775
G1 X66.523 Y46.124 E32.47145
G1 X66.647 Y46.124 E32.47548
G1 X66.767 Y46.124 E32.47998
G1 X66.883 Y46.124 E32.48464
G1 X66.908 Y46.124 E32.48587
G1 X67.566 Y46.124 E32.51869
G1 X67.566 Y46.728 E32.54883
G0 F3600 X67.566 Y46.751
G0 X67.566 Y46.85
G0 X67.566 Y46.928
G0 X67.466 Y46.928
G0 X66.783 Y46.414
G0 X66.266 Y46.297
G0 X65.97 Y46.347
G0 X64.272 Y46.914
;TYPE:SKIN
