;FLAVOR:Marlin
;TIME:2042
;Filament used: 1.53117m
;Layer height: 0.2
;Generated with Cura_SteamEngine 3.6.0
M104 S200
M105
M109 S200
M82 ;absolute extrusion mode
G28 ;Home
G1 Z15.0 F6000 ;Move the platform down 15mm
;Prime the extruder
G92 E0
G1 F200 E3
G92 E0
G92 E0
G1 F1500 E-6.5
;LAYER_COUNT:13
;LAYER:0
M107
G0 F3600 X11.43 Y12.301 Z0.3
;TYPE:SKIRT
G1 F1500 E0
G1 F1200 X12.029 Y11.786 E0.03941
G1 X12.677 Y11.335 E0.0788
G1 X13.368 Y10.951 E0.11824
G1 X14.093 Y10.639 E0.15762
G1 X14.846 Y10.402 E0.197
G1 X15.62 Y10.243 E0.23642
G1 X16.405 Y10.162 E0.27579
G1 X16.807 Y10.152 E0.29586
G1 X73.193 Y10.153 E3.10896
G1 X73.982 Y10.193 E3.14838
G1 X74.762 Y10.313 E3.18775
G1 X75.527 Y10.51 E3.22716
G1 X76.267 Y10.784 E3.26653
G1 X76.977 Y11.132 E3.30598
G1 X77.647 Y11.55 E3.34538
G1 X78.271 Y12.033 E3.38474
G1 X78.844 Y12.577 E3.42416
G1 X79.359 Y13.176 E3.46357
G1 X79.81 Y13.823 E3.50292
G1 X80.194 Y14.514 E3.54236
G1 X80.506 Y15.239 E3.58174
G1 X80.743 Y15.992 E3.62112
G1 X80.902 Y16.766 E3.66054
G1 X80.983 Y17.551 E3.69992
G1 X80.993 Y17.953 E3.71998
G1 X80.993 Y82.047 E6.91764
G1 X80.953 Y82.836 E6.95705
G1 X80.834 Y83.616 E6.99642
G1 X80.636 Y84.381 E7.03584
G1 X80.362 Y85.121 E7.07521
G1 X80.014 Y85.83 E7.11461
G1 X79.596 Y86.501 E7.15405
G1 X79.113 Y87.125 E7.19342
G1 X78.57 Y87.698 E7.23281
G1 X77.971 Y88.213 E7.27222
G1 X77.323 Y88.664 E7.31161
G1 X76.632 Y89.048 E7.35105
G1 X75.907 Y89.36 E7.39042
G1 X75.154 Y89.597 E7.42981
G1 X74.38 Y89.756 E7.46923
G1 X73.595 Y89.837 E7.5086
G1 X73.193 Y89.847 E7.52866
G1 X16.807 Y89.847 E10.34177
G1 X16.018 Y89.807 E10.38119
G1 X15.238 Y89.688 E10.42055
G1 X14.473 Y89.49 E10.45997
G1 X13.733 Y89.216 E10.49934
G1 X13.024 Y88.868 E10.53874
G1 X12.353 Y88.45 E10.57819
G1 X11.729 Y87.967 E10.61755
G1 X11.156 Y87.424 E10.65694
G1 X10.641 Y86.825 E10.69635
G1 X10.19 Y86.177 E10.73574
G1 X9.806 Y85.486 E10.77518
G1 X9.494 Y84.761 E10.81455
G1 X9.257 Y84.008 E10.85394
G1 X9.098 Y83.234 E10.89336
G1 X9.017 Y82.449 E10.93273
G1 X9.007 Y82.047 E10.95279
G1 X9.007 Y17.952 E14.15051
G1 X9.047 Y17.163 E14.18992
G1 X9.166 Y16.383 E14.22928
G1 X9.364 Y15.618 E14.26871
G1 X9.638 Y14.878 E14.30808
G1 X9.986 Y14.169 E14.34748
G1 X10.404 Y13.498 E14.38692
G1 X10.887 Y12.874 E14.42629
G1 X11.43 Y12.301 E14.46567
G0 F3600 X11.823 Y12.482
G1 F1200 X12.418 Y11.994 E14.50406
G1 X13.06 Y11.571 E14.54242
G1 X13.743 Y11.216 E14.58082
G1 X14.458 Y10.935 E14.61915
G1 X15.2 Y10.729 E14.65757
G1 X15.958 Y10.601 E14.69592
G1 X16.807 Y10.552 E14.73835
G1 X73.193 Y10.553 E17.55146
G1 X73.961 Y10.593 E17.58983
G1 X74.721 Y10.712 E17.6282
G1 X75.464 Y10.91 E17.66657
G1 X76.183 Y11.184 E17.70495
G1 X76.87 Y11.531 E17.74335
G1 X77.516 Y11.947 E17.78169
G1 X78.116 Y12.428 E17.82005
G1 X78.663 Y12.969 E17.85843
G1 X79.151 Y13.564 E17.89683
G1 X79.574 Y14.206 E17.93518
G1 X79.929 Y14.889 E17.97359
G1 X80.21 Y15.605 E18.01196
G1 X80.416 Y16.346 E18.05033
G1 X80.544 Y17.104 E18.08868
G1 X80.593 Y17.953 E18.13111
G1 X80.593 Y82.047 E21.32877
G1 X80.553 Y82.815 E21.36714
G1 X80.434 Y83.575 E21.40552
G1 X80.236 Y84.318 E21.44388
G1 X79.962 Y85.037 E21.48227
G1 X79.615 Y85.723 E21.52062
G1 X79.199 Y86.37 E21.559
G1 X78.718 Y86.97 E21.59736
G1 X78.177 Y87.517 E21.63575
G1 X77.582 Y88.005 E21.67414
G1 X76.94 Y88.428 E21.71249
G1 X76.257 Y88.783 E21.7509
G1 X75.542 Y89.064 E21.78922
G1 X74.8 Y89.27 E21.82764
G1 X74.042 Y89.398 E21.866
G1 X73.193 Y89.447 E21.90842
G1 X16.807 Y89.447 E24.72153
G1 X16.039 Y89.407 E24.7599
G1 X15.279 Y89.288 E24.79828
G1 X14.536 Y89.09 E24.83664
G1 X13.817 Y88.816 E24.87503
G1 X13.131 Y88.469 E24.91338
G1 X12.484 Y88.053 E24.95176
G1 X11.884 Y87.572 E24.99012
G1 X11.337 Y87.031 E25.02851
G1 X10.849 Y86.436 E25.0669
G1 X10.426 Y85.794 E25.10525
G1 X10.071 Y85.111 E25.14366
G1 X9.79 Y84.396 E25.18198
G1 X9.584 Y83.654 E25.2204
G1 X9.456 Y82.896 E25.25876
G1 X9.407 Y82.047 E25.30118
G1 X9.407 Y17.952 E28.4989
G1 X9.447 Y17.184 E28.53726
G1 X9.566 Y16.424 E28.57564
G1 X9.764 Y15.681 E28.614
G1 X10.038 Y14.962 E28.65239
G1 X10.385 Y14.276 E28.69074
G1 X10.801 Y13.629 E28.72912
G1 X11.282 Y13.029 E28.76749
G1 X11.823 Y12.482 E28.80587
G0 F3600 X12.215 Y12.668
G1 F1200 X12.805 Y12.209 E28.84316
G1 X13.441 Y11.814 E28.88051
G1 X14.115 Y11.49 E28.91782
G1 X14.82 Y11.24 E28.95514
G1 X15.548 Y11.066 E28.99249
G1 X16.29 Y10.971 E29.02981
G1 X16.807 Y10.952 E29.05562
G1 X73.193 Y10.953 E31.86873
G1 X73.94 Y10.993 E31.90605
G1 X74.679 Y11.112 E31.94339
G1 X75.4 Y11.31 E31.98069
G1 X76.096 Y11.584 E32.01801
G1 X76.76 Y11.93 E32.05537
G1 X77.382 Y12.345 E32.09267
G1 X77.956 Y12.824 E32.12997
G1 X78.477 Y13.361 E32.1673
G1 X78.936 Y13.951 E32.20459
G1 X79.331 Y14.587 E32.24194
G1 X79.655 Y15.261 E32.27925
G1 X79.905 Y15.966 E32.31657
G1 X80.079 Y16.694 E32.35391
G1 X80.174 Y17.436 E32.39123
G1 X80.193 Y17.953 E32.41704
G1 X80.193 Y82.047 E35.61471
G1 X80.153 Y82.794 E35.65203
G1 X80.034 Y83.532 E35.68932
G1 X79.836 Y84.254 E35.72667
G1 X79.563 Y84.95 E35.76397
G1 X79.216 Y85.613 E35.80131
G1 X78.801 Y86.236 E35.83865
G1 X78.322 Y86.81 E35.87595
G1 X77.785 Y87.331 E35.91328
G1 X77.195 Y87.79 E35.95057
G1 X76.559 Y88.185 E35.98792
G1 X75.885 Y88.509 E36.02523
G1 X75.18 Y88.759 E36.06255
G1 X74.452 Y88.933 E36.0999
G1 X73.71 Y89.028 E36.13722
G1 X73.193 Y89.047 E36.16303
G1 X16.807 Y89.047 E38.97614
G1 X16.06 Y89.007 E39.01346
G1 X15.322 Y88.888 E39.05075
G1 X14.6 Y88.69 E39.0881
G1 X13.904 Y88.417 E39.1254
G1 X13.241 Y88.07 E39.16274
G1 X12.618 Y87.655 E39.20008
G1 X12.044 Y87.176 E39.23738
G1 X11.523 Y86.639 E39.27471
G1 X11.064 Y86.049 E39.312
G1 X10.669 Y85.413 E39.34935
G1 X10.345 Y84.739 E39.38666
G1 X10.095 Y84.034 E39.42398
G1 X9.921 Y83.306 E39.46132
G1 X9.826 Y82.564 E39.49865
G1 X9.807 Y82.047 E39.52446
G1 X9.807 Y17.952 E42.72217
G1 X9.847 Y17.205 E42.75949
G1 X9.966 Y16.467 E42.79678
G1 X10.164 Y15.745 E42.83414
G1 X10.437 Y15.049 E42.87143
G1 X10.784 Y14.386 E42.90877
G1 X11.199 Y13.763 E42.94611
G1 X11.678 Y13.189 E42.98341
G1 X12.215 Y12.668 E43.02074
G0 F3600 X12.072 Y13.354
G1 F1200 X12.606 Y12.861 E43.057
G1 X13.191 Y12.431 E43.09322
G1 X13.82 Y12.067 E43.12948
G1 X14.485 Y11.774 E43.16573
G1 X15.178 Y11.556 E43.20198
G1 X15.89 Y11.416 E43.23818
G1 X16.807 Y11.352 E43.28404
G1 X73.193 Y11.353 E46.09715
G1 X73.918 Y11.393 E46.13337
G1 X74.635 Y11.512 E46.16963
G1 X75.334 Y11.71 E46.20588
G1 X76.007 Y11.983 E46.24211
G1 X76.646 Y12.328 E46.27834
G1 X77.243 Y12.742 E46.31459
G1 X77.791 Y13.218 E46.3508
G1 X78.284 Y13.752 E46.38706
G1 X78.714 Y14.337 E46.42328
G1 X79.078 Y14.966 E46.45954
G1 X79.371 Y15.631 E46.49579
G1 X79.589 Y16.324 E46.53204
G1 X79.729 Y17.036 E46.56824
G1 X79.793 Y17.953 E46.6141
G1 X79.793 Y82.047 E49.81176
G1 X79.753 Y82.772 E49.84799
G1 X79.634 Y83.489 E49.88425
G1 X79.436 Y84.188 E49.9205
G1 X79.163 Y84.861 E49.95673
G1 X78.818 Y85.5 E49.99296
G1 X78.404 Y86.097 E50.0292
G1 X77.928 Y86.645 E50.06542
G1 X77.394 Y87.138 E50.10168
G1 X76.809 Y87.568 E50.1379
G1 X76.18 Y87.932 E50.17415
G1 X75.515 Y88.225 E50.21041
G1 X74.822 Y88.443 E50.24665
G1 X74.11 Y88.583 E50.28286
G1 X73.193 Y88.647 E50.32872
G1 X16.807 Y88.647 E53.14183
G1 X16.082 Y88.607 E53.17805
G1 X15.365 Y88.488 E53.21431
G1 X14.666 Y88.29 E53.25056
G1 X13.993 Y88.017 E53.28679
G1 X13.354 Y87.672 E53.32302
G1 X12.757 Y87.258 E53.35926
G1 X12.209 Y86.782 E53.39548
G1 X11.716 Y86.248 E53.43174
G1 X11.286 Y85.663 E53.46796
G1 X10.922 Y85.034 E53.50422
G1 X10.629 Y84.369 E53.54047
G1 X10.411 Y83.676 E53.57671
G1 X10.271 Y82.964 E53.61292
G1 X10.207 Y82.047 E53.65878
G1 X10.207 Y17.952 E56.85649
G1 X10.247 Y17.227 E56.89272
G1 X10.366 Y16.51 E56.92898
G1 X10.564 Y15.811 E56.96522
G1 X10.837 Y15.138 E57.00145
G1 X11.182 Y14.499 E57.03768
G1 X11.596 Y13.902 E57.07393
G1 X12.072 Y13.354 E57.11014
G0 F3600 X12.466 Y13.525
G1 F1200 X12.996 Y13.061 E57.14529
G1 X13.575 Y12.661 E57.1804
G1 X14.196 Y12.329 E57.21553
G1 X14.85 Y12.069 E57.25064
G1 X15.53 Y11.885 E57.28578
G1 X16.226 Y11.779 E57.32091
G1 X16.807 Y11.752 E57.34993
G1 X73.193 Y11.753 E60.16304
G1 X73.896 Y11.793 E60.19816
G1 X74.59 Y11.912 E60.23329
G1 X75.266 Y12.11 E60.26844
G1 X75.915 Y12.382 E60.30354
G1 X76.529 Y12.727 E60.33868
G1 X77.1 Y13.139 E60.37381
G1 X77.62 Y13.612 E60.40888
G1 X78.084 Y14.142 E60.44402
G1 X78.484 Y14.721 E60.47913
G1 X78.816 Y15.342 E60.51426
G1 X79.076 Y15.996 E60.54938
G1 X79.26 Y16.676 E60.58452
G1 X79.366 Y17.372 E60.61965
G1 X79.393 Y17.953 E60.64866
G1 X79.393 Y82.047 E63.84633
G1 X79.353 Y82.75 E63.88146
G1 X79.234 Y83.444 E63.91658
G1 X79.036 Y84.119 E63.95168
G1 X78.764 Y84.768 E63.98679
G1 X78.419 Y85.382 E64.02192
G1 X78.008 Y85.953 E64.05702
G1 X77.534 Y86.474 E64.09216
G1 X77.004 Y86.938 E64.12731
G1 X76.425 Y87.338 E64.16242
G1 X75.804 Y87.67 E64.19755
G1 X75.15 Y87.93 E64.23266
G1 X74.47 Y88.114 E64.26781
G1 X73.774 Y88.22 E64.30293
G1 X73.193 Y88.247 E64.33195
G1 X16.807 Y88.247 E67.14506
G1 X16.104 Y88.207 E67.18019
G1 X15.41 Y88.088 E67.21531
G1 X14.735 Y87.89 E67.25041
G1 X14.086 Y87.618 E67.28552
G1 X13.472 Y87.273 E67.32065
G1 X12.901 Y86.862 E67.35575
G1 X12.38 Y86.388 E67.39089
G1 X11.916 Y85.858 E67.42604
G1 X11.516 Y85.279 E67.46115
G1 X11.184 Y84.658 E67.49628
G1 X10.924 Y84.004 E67.53139
G1 X10.74 Y83.324 E67.56654
G1 X10.634 Y82.628 E67.60166
G1 X10.607 Y82.047 E67.63068
G1 X10.607 Y17.952 E70.82839
G1 X10.647 Y17.249 E70.86352
G1 X10.766 Y16.555 E70.89865
G1 X10.964 Y15.88 E70.93374
G1 X11.236 Y15.231 E70.96885
G1 X11.581 Y14.617 E71.00399
G1 X11.992 Y14.046 E71.03909
G1 X12.466 Y13.525 E71.07423
G0 F3600 X12.86 Y13.703
G1 F1200 X13.385 Y13.269 E71.10821
G1 X13.957 Y12.9 E71.14217
G1 X14.569 Y12.601 E71.17615
G1 X15.211 Y12.376 E71.21009
G1 X15.876 Y12.227 E71.24409
G1 X16.807 Y12.152 E71.29069
G1 X73.193 Y12.153 E74.1038
G1 X73.873 Y12.193 E74.13778
G1 X74.543 Y12.312 E74.17173
G1 X75.195 Y12.509 E74.20571
G1 X75.819 Y12.782 E74.23969
G1 X76.407 Y13.125 E74.27366
G1 X76.951 Y13.535 E74.30764
G1 X77.443 Y14.006 E74.34162
G1 X77.876 Y14.531 E74.37557
G1 X78.245 Y15.103 E74.40953
G1 X78.544 Y15.715 E74.44351
G1 X78.769 Y16.357 E74.47745
G1 X78.918 Y17.022 E74.51145
G1 X78.993 Y17.953 E74.55805
G1 X78.993 Y82.047 E77.75571
G1 X78.953 Y82.727 E77.7897
G1 X78.834 Y83.397 E77.82365
G1 X78.637 Y84.049 E77.85763
G1 X78.365 Y84.673 E77.89159
G1 X78.021 Y85.261 E77.92558
G1 X77.611 Y85.805 E77.95956
G1 X77.14 Y86.296 E77.99351
G1 X76.615 Y86.73 E78.02749
G1 X76.043 Y87.099 E78.06145
G1 X75.431 Y87.398 E78.09543
G1 X74.789 Y87.623 E78.12937
G1 X74.124 Y87.772 E78.16337
G1 X73.193 Y87.847 E78.20997
G1 X16.807 Y87.847 E81.02308
G1 X16.127 Y87.807 E81.05706
G1 X15.457 Y87.688 E81.09101
G1 X14.805 Y87.491 E81.12499
G1 X14.181 Y87.219 E81.15895
G1 X13.593 Y86.875 E81.19294
G1 X13.049 Y86.465 E81.22692
G1 X12.558 Y85.994 E81.26087
G1 X12.124 Y85.469 E81.29485
G1 X11.755 Y84.897 E81.32881
G1 X11.456 Y84.285 E81.36279
G1 X11.231 Y83.643 E81.39673
G1 X11.082 Y82.978 E81.43073
G1 X11.007 Y82.047 E81.47733
G1 X11.007 Y17.952 E84.67504
G1 X11.047 Y17.272 E84.70903
G1 X11.166 Y16.602 E84.74298
G1 X11.363 Y15.95 E84.77696
G1 X11.635 Y15.326 E84.81092
G1 X11.979 Y14.738 E84.84491
G1 X12.389 Y14.194 E84.87889
G1 X12.86 Y13.703 E84.91284
G0 F3600 X13.252 Y13.887
G1 F1200 X13.772 Y13.486 E84.9456
G1 X14.336 Y13.15 E84.97835
G1 X14.938 Y12.886 E85.01114
G1 X15.567 Y12.696 E85.04393
G1 X16.214 Y12.585 E85.07668
G1 X16.807 Y12.552 E85.10631
G1 X73.193 Y12.553 E87.91942
G1 X73.849 Y12.593 E87.95221
G1 X74.495 Y12.712 E87.98498
G1 X75.122 Y12.909 E88.01777
G1 X75.72 Y13.181 E88.05054
G1 X76.281 Y13.523 E88.08332
G1 X76.796 Y13.931 E88.1161
G1 X77.258 Y14.398 E88.14887
G1 X77.659 Y14.918 E88.18163
G1 X77.995 Y15.483 E88.21443
G1 X78.259 Y16.084 E88.24718
G1 X78.449 Y16.713 E88.27996
G1 X78.56 Y17.36 E88.31271
G1 X78.593 Y17.953 E88.34234
G1 X78.593 Y82.047 E91.54
G1 X78.553 Y82.703 E91.57279
G1 X78.434 Y83.349 E91.60556
G1 X78.237 Y83.976 E91.63835
G1 X77.965 Y84.574 E91.67113
G1 X77.623 Y85.135 E91.70391
G1 X77.215 Y85.65 E91.73669
G1 X76.748 Y86.112 E91.76946
G1 X76.228 Y86.513 E91.80222
G1 X75.664 Y86.849 E91.83497
G1 X75.062 Y87.113 E91.86777
G1 X74.433 Y87.303 E91.90055
G1 X73.786 Y87.414 E91.9333
G1 X73.193 Y87.447 E91.96293
G1 X16.807 Y87.447 E94.77604
G1 X16.151 Y87.407 E94.80883
G1 X15.505 Y87.288 E94.8416
G1 X14.878 Y87.091 E94.87439
G1 X14.28 Y86.819 E94.90717
G1 X13.719 Y86.477 E94.93994
G1 X13.204 Y86.069 E94.97272
G1 X12.742 Y85.602 E95.0055
G1 X12.341 Y85.082 E95.03826
G1 X12.005 Y84.518 E95.07101
G1 X11.741 Y83.916 E95.10381
G1 X11.551 Y83.287 E95.13659
G1 X11.44 Y82.64 E95.16934
G1 X11.407 Y82.047 E95.19897
G1 X11.407 Y17.952 E98.39668
G1 X11.447 Y17.296 E98.42947
G1 X11.566 Y16.65 E98.46224
G1 X11.763 Y16.023 E98.49503
G1 X12.035 Y15.425 E98.52781
G1 X12.377 Y14.864 E98.56059
G1 X12.785 Y14.349 E98.59336
G1 X13.252 Y13.887 E98.62614
G0 F3600 X13.18 Y14.511
G1 F1200 X13.643 Y14.081 E98.65766
G1 X14.157 Y13.712 E98.68923
G1 X14.713 Y13.412 E98.72075
G1 X15.302 Y13.184 E98.75226
G1 X15.916 Y13.032 E98.78382
G1 X16.807 Y12.952 E98.82845
G1 X73.193 Y12.953 E101.64156
G1 X73.824 Y12.993 E101.6731
G1 X74.445 Y13.112 E101.70465
G1 X75.046 Y13.309 E101.7362
G1 X75.617 Y13.58 E101.76773
G1 X76.149 Y13.92 E101.79923
G1 X76.634 Y14.326 E101.83079
G1 X77.064 Y14.789 E101.86231
G1 X77.433 Y15.303 E101.89388
G1 X77.733 Y15.859 E101.9254
G1 X77.961 Y16.448 E101.95691
G1 X78.113 Y17.062 E101.98847
G1 X78.193 Y17.953 E102.0331
G1 X78.193 Y82.047 E105.23076
G1 X78.153 Y82.678 E105.2623
G1 X78.034 Y83.299 E105.29385
G1 X77.837 Y83.899 E105.32536
G1 X77.566 Y84.471 E105.35693
G1 X77.226 Y85.003 E105.38843
G1 X76.82 Y85.488 E105.41999
G1 X76.357 Y85.918 E105.45151
G1 X75.843 Y86.287 E105.48308
G1 X75.287 Y86.587 E105.5146
G1 X74.698 Y86.815 E105.54611
G1 X74.084 Y86.967 E105.57767
G1 X73.193 Y87.047 E105.6223
G1 X16.807 Y87.047 E108.43541
G1 X16.176 Y87.007 E108.46695
G1 X15.555 Y86.888 E108.4985
G1 X14.955 Y86.691 E108.53
G1 X14.383 Y86.42 E108.56158
G1 X13.851 Y86.08 E108.59308
G1 X13.366 Y85.674 E108.62463
G1 X12.936 Y85.211 E108.65616
G1 X12.567 Y84.697 E108.68773
G1 X12.267 Y84.141 E108.71925
G1 X12.039 Y83.552 E108.75076
G1 X11.887 Y82.938 E108.78231
G1 X11.807 Y82.047 E108.82694
G1 X11.807 Y17.952 E112.02466
G1 X11.847 Y17.321 E112.0562
G1 X11.966 Y16.7 E112.08775
G1 X12.163 Y16.1 E112.11925
G1 X12.434 Y15.528 E112.15083
G1 X12.774 Y14.996 E112.18233
G1 X13.18 Y14.511 E112.21389
G0 F3600 X13.574 Y14.68
G1 F1200 X14.032 Y14.283 E112.24412
G1 X14.539 Y13.95 E112.27439
G1 X15.085 Y13.686 E112.30464
G1 X15.661 Y13.497 E112.33489
G1 X16.257 Y13.385 E112.36514
G1 X16.807 Y13.352 E112.39263
G1 X73.193 Y13.353 E115.20574
G1 X73.798 Y13.393 E115.23599
G1 X74.393 Y13.512 E115.26626
G1 X74.966 Y13.708 E115.29648
G1 X75.509 Y13.979 E115.32675
G1 X76.012 Y14.318 E115.35702
G1 X76.465 Y14.72 E115.38723
G1 X76.862 Y15.178 E115.41747
G1 X77.195 Y15.685 E115.44773
G1 X77.459 Y16.231 E115.47799
G1 X77.648 Y16.807 E115.50823
G1 X77.76 Y17.403 E115.53849
G1 X77.793 Y17.953 E115.56598
G1 X77.793 Y82.047 E118.76364
G1 X77.753 Y82.652 E118.79389
G1 X77.634 Y83.246 E118.82411
G1 X77.438 Y83.82 E118.85437
G1 X77.167 Y84.363 E118.88465
G1 X76.828 Y84.866 E118.91491
G1 X76.426 Y85.319 E118.94513
G1 X75.968 Y85.716 E118.97537
G1 X75.461 Y86.049 E119.00563
G1 X74.915 Y86.313 E119.03589
G1 X74.339 Y86.502 E119.06613
G1 X73.743 Y86.614 E119.09639
G1 X73.193 Y86.647 E119.12388
G1 X16.807 Y86.647 E121.93698
G1 X16.202 Y86.607 E121.96723
G1 X15.608 Y86.488 E121.99746
G1 X15.034 Y86.292 E122.02772
G1 X14.491 Y86.021 E122.058
G1 X13.988 Y85.682 E122.08826
G1 X13.535 Y85.28 E122.11847
G1 X13.138 Y84.822 E122.14871
G1 X12.805 Y84.315 E122.17897
G1 X12.541 Y83.769 E122.20923
G1 X12.352 Y83.193 E122.23948
G1 X12.24 Y82.597 E122.26973
G1 X12.207 Y82.047 E122.29722
G1 X12.207 Y17.952 E125.49493
G1 X12.247 Y17.347 E125.52518
G1 X12.366 Y16.753 E125.55541
G1 X12.562 Y16.179 E125.58567
G1 X12.833 Y15.636 E125.61594
G1 X13.172 Y15.133 E125.64621
G1 X13.574 Y14.68 E125.67642
G0 F3600 X13.967 Y14.858
G1 F1200 X14.42 Y14.496 E125.70535
