;FLAVOR:Marlin
;TIME:1255
;Filament used: 0.916673m
;Layer height: 0.2
;Generated with Cura_SteamEngine 3.6.0
M104 S200
M105
M109 S200
M82 ;absolute extrusion mode
G28 ;Home
G1 Z15.0 F6000 ;Move the platform down 15mm
;Prime the extruder
G92 E0
G1 F200 E3
G92 E0
G92 E0
G1 F1500 E-6.5
;LAYER_COUNT:24
;LAYER:0
M107
G0 F3600 X23.483 Y22.034 Z0.3
;TYPE:SKIRT
G1 F1500 E0
G1 F1200 X24.026 Y21.461 E0.03938
G1 X24.625 Y20.946 E0.0788
G1 X25.273 Y20.495 E0.11818
G1 X25.964 Y20.111 E0.15762
G1 X26.689 Y19.799 E0.197
G1 X27.442 Y19.562 E0.23638
G1 X28.216 Y19.403 E0.27581
G1 X29.001 Y19.322 E0.31518
G1 X29.403 Y19.312 E0.33524
G1 X48.703 Y19.312 E1.29812
G1 X49.492 Y19.352 E1.33753
G1 X50.272 Y19.471 E1.3769
G1 X51.037 Y19.669 E1.41632
G1 X51.777 Y19.943 E1.45569
G1 X52.486 Y20.291 E1.49509
G1 X53.157 Y20.709 E1.53454
G1 X53.781 Y21.192 E1.5739
G1 X54.354 Y21.735 E1.61329
G1 X54.869 Y22.334 E1.6527
G1 X55.32 Y22.982 E1.69209
G1 X55.704 Y23.673 E1.73153
G1 X56.016 Y24.398 E1.7709
G1 X56.253 Y25.151 E1.81029
G1 X56.412 Y25.925 E1.84971
G1 X56.503 Y27.098 E1.90841
G1 X56.509 Y30.674 E2.08681
G1 X64.44 Y30.712 E2.4825
G1 X65.229 Y30.756 E2.52192
G1 X66.009 Y30.879 E2.56132
G1 X66.772 Y31.081 E2.60069
G1 X67.512 Y31.358 E2.64012
G1 X68.219 Y31.709 E2.6795
G1 X68.887 Y32.13 E2.71889
G1 X69.51 Y32.616 E2.75831
G1 X70.08 Y33.163 E2.79772
G1 X70.591 Y33.764 E2.83708
G1 X71.04 Y34.414 E2.87649
G1 X71.42 Y35.106 E2.91588
G1 X71.729 Y35.833 E2.95529
G1 X71.962 Y36.587 E2.99466
G1 X72.118 Y37.362 E3.0341
G1 X72.203 Y38.512 E3.09163
G1 X72.203 Y42.112 E3.27124
G1 X72.163 Y42.901 E3.31065
G1 X72.044 Y43.681 E3.35002
G1 X71.846 Y44.446 E3.38944
G1 X71.572 Y45.186 E3.42881
G1 X71.224 Y45.895 E3.46821
G1 X70.806 Y46.566 E3.50765
G1 X70.712 Y46.687 E3.5153
G1 X71.02 Y47.129 E3.54217
G1 X71.404 Y47.82 E3.58161
G1 X71.716 Y48.545 E3.62099
G1 X71.953 Y49.298 E3.66037
G1 X72.112 Y50.072 E3.6998
G1 X72.193 Y50.857 E3.73917
G1 X72.203 Y51.259 E3.75923
G1 X72.203 Y54.859 E3.93883
G1 X72.163 Y55.648 E3.97825
G1 X72.044 Y56.428 E4.01761
G1 X71.846 Y57.193 E4.05704
G1 X71.572 Y57.933 E4.09641
G1 X71.224 Y58.642 E4.13581
G1 X71.095 Y58.849 E4.14798
G1 X71.404 Y59.406 E4.17976
G1 X71.716 Y60.131 E4.21913
G1 X71.953 Y60.884 E4.25852
G1 X72.112 Y61.658 E4.29794
G1 X72.193 Y62.443 E4.33731
G1 X72.203 Y62.845 E4.35737
G1 X72.203 Y66.445 E4.53698
G1 X72.163 Y67.234 E4.57639
G1 X72.044 Y68.014 E4.61576
G1 X71.846 Y68.779 E4.65518
G1 X71.572 Y69.519 E4.69455
G1 X71.224 Y70.228 E4.73395
G1 X70.806 Y70.899 E4.77339
G1 X70.323 Y71.523 E4.81276
G1 X69.78 Y72.096 E4.85214
G1 X69.181 Y72.611 E4.89155
G1 X68.533 Y73.062 E4.93094
G1 X67.842 Y73.446 E4.97038
G1 X67.117 Y73.758 E5.00976
G1 X66.364 Y73.995 E5.04914
G1 X65.59 Y74.154 E5.08857
G1 X64.44 Y74.245 E5.14612
G1 X56.509 Y74.283 E5.5418
G1 X56.503 Y77.859 E5.72021
G1 X56.462 Y78.647 E5.75958
G1 X56.341 Y79.428 E5.79901
G1 X56.142 Y80.192 E5.83839
G1 X55.866 Y80.932 E5.8778
G1 X55.517 Y81.64 E5.91718
G1 X55.099 Y82.31 E5.95658
G1 X54.614 Y82.934 E5.996
G1 X54.07 Y83.505 E6.03535
G1 X53.47 Y84.019 E6.07477
G1 X52.821 Y84.469 E6.11417
G1 X52.13 Y84.852 E6.15358
G1 X51.404 Y85.162 E6.19297
G1 X50.65 Y85.398 E6.23238
G1 X49.877 Y85.556 E6.27175
G1 X48.703 Y85.645 E6.33049
G1 X29.403 Y85.645 E7.29337
G1 X28.614 Y85.605 E7.33278
G1 X27.834 Y85.486 E7.37215
G1 X27.069 Y85.288 E7.41157
G1 X26.329 Y85.014 E7.45094
G1 X25.62 Y84.666 E7.49034
G1 X24.949 Y84.248 E7.52978
G1 X24.325 Y83.765 E7.56915
G1 X23.752 Y83.222 E7.60853
G1 X23.237 Y82.623 E7.64794
G1 X22.786 Y81.975 E7.68733
G1 X22.402 Y81.284 E7.72677
G1 X22.09 Y80.559 E7.76615
G1 X21.853 Y79.806 E7.80553
G1 X21.694 Y79.032 E7.84495
G1 X21.613 Y78.247 E7.88433
G1 X21.603 Y77.845 E7.90439
G1 X21.603 Y74.245 E8.08399
G1 X21.643 Y73.456 E8.12341
G1 X21.762 Y72.676 E8.16277
G1 X21.96 Y71.911 E8.2022
G1 X22.234 Y71.171 E8.24156
G1 X22.582 Y70.462 E8.28097
G1 X23 Y69.791 E8.32041
G1 X23.483 Y69.167 E8.35978
G1 X24.026 Y68.594 E8.39916
G1 X24.625 Y68.079 E8.43857
G1 X25.273 Y67.628 E8.47796
G1 X25.964 Y67.244 E8.5174
G1 X26.689 Y66.932 E8.55678
G1 X27.442 Y66.695 E8.59616
G1 X28.216 Y66.536 E8.63558
G1 X29.366 Y66.445 E8.69313
G1 X37.297 Y66.407 E9.08882
G1 X37.303 Y62.831 E9.26723
G1 X37.312 Y62.659 E9.27582
G1 X29.403 Y62.659 E9.6704
G1 X28.614 Y62.619 E9.70981
G1 X27.834 Y62.5 E9.74918
G1 X27.069 Y62.302 E9.7886
G1 X26.329 Y62.028 E9.82797
G1 X25.62 Y61.68 E9.86737
G1 X24.949 Y61.262 E9.90681
G1 X24.325 Y60.779 E9.94618
G1 X23.752 Y60.236 E9.98557
G1 X23.237 Y59.637 E10.02498
G1 X22.786 Y58.989 E10.06437
G1 X22.402 Y58.298 E10.10381
G1 X22.09 Y57.573 E10.14318
G1 X21.853 Y56.82 E10.18257
G1 X21.694 Y56.046 E10.22199
G1 X21.613 Y55.261 E10.26136
G1 X21.603 Y54.859 E10.28142
G1 X21.603 Y51.259 E10.46103
G1 X21.643 Y50.47 E10.50044
G1 X21.762 Y49.69 E10.53981
G1 X21.96 Y48.925 E10.57923
G1 X22.234 Y48.185 E10.6186
G1 X22.582 Y47.476 E10.658
G1 X23 Y46.805 E10.69744
G1 X23.483 Y46.181 E10.73681
G1 X24.026 Y45.608 E10.77619
G1 X24.625 Y45.093 E10.8156
G1 X25.273 Y44.642 E10.85499
G1 X25.964 Y44.258 E10.89443
G1 X26.689 Y43.946 E10.93381
G1 X27.442 Y43.709 E10.97319
G1 X28.216 Y43.55 E11.01262
G1 X29.001 Y43.469 E11.05199
G1 X29.403 Y43.459 E11.07205
G1 X37.427 Y43.459 E11.47237
G1 X37.394 Y43.299 E11.48052
G1 X37.303 Y42.126 E11.53922
G1 X37.297 Y38.55 E11.71762
G1 X29.366 Y38.512 E12.11331
G1 X28.577 Y38.468 E12.15273
G1 X27.797 Y38.345 E12.19213
G1 X27.034 Y38.143 E12.2315
G1 X26.294 Y37.866 E12.27092
G1 X25.587 Y37.515 E12.3103
G1 X24.919 Y37.094 E12.3497
G1 X24.296 Y36.608 E12.38912
G1 X23.726 Y36.061 E12.42853
G1 X23.215 Y35.46 E12.46789
G1 X22.766 Y34.81 E12.5073
G1 X22.386 Y34.118 E12.54669
G1 X22.077 Y33.391 E12.5861
G1 X21.844 Y32.637 E12.62547
G1 X21.688 Y31.862 E12.66491
G1 X21.603 Y30.712 E12.72244
G1 X21.603 Y27.112 E12.90205
G1 X21.643 Y26.323 E12.94146
G1 X21.762 Y25.543 E12.98083
G1 X21.96 Y24.778 E13.02025
G1 X22.234 Y24.038 E13.05962
G1 X22.582 Y23.329 E13.09902
G1 X23 Y22.658 E13.13846
G1 X23.483 Y22.034 E13.17783
G0 F3600 X23.878 Y22.189
G1 F1200 X24.419 Y21.642 E13.21621
G1 X25.014 Y21.154 E13.2546
G1 X25.656 Y20.731 E13.29296
G1 X26.339 Y20.376 E13.33136
G1 X27.054 Y20.095 E13.36969
G1 X27.796 Y19.889 E13.40811
G1 X28.554 Y19.761 E13.44646
G1 X29.403 Y19.712 E13.48889
G1 X48.703 Y19.712 E14.45177
G1 X49.471 Y19.752 E14.49014
G1 X50.231 Y19.871 E14.52852
G1 X50.974 Y20.069 E14.56688
G1 X51.693 Y20.343 E14.60527
G1 X52.379 Y20.69 E14.64362
G1 X53.026 Y21.106 E14.682
G1 X53.626 Y21.587 E14.72036
G1 X54.173 Y22.128 E14.75874
G1 X54.661 Y22.723 E14.79714
G1 X55.084 Y23.365 E14.83549
G1 X55.439 Y24.048 E14.8739
G1 X55.72 Y24.763 E14.91222
G1 X55.926 Y25.505 E14.95064
G1 X56.054 Y26.263 E14.98899
G1 X56.103 Y27.099 E15.03077
G1 X56.11 Y31.072 E15.22899
G1 X64.438 Y31.112 E15.64448
G1 X65.206 Y31.156 E15.68286
G1 X65.966 Y31.279 E15.72127
G1 X66.708 Y31.48 E15.75962
G1 X67.425 Y31.757 E15.79797
G1 X68.11 Y32.108 E15.83637
G1 X68.755 Y32.527 E15.87474
G1 X69.353 Y33.011 E15.91312
G1 X69.897 Y33.554 E15.95147
G1 X70.382 Y34.152 E15.98988
G1 X70.802 Y34.796 E16.02824
G1 X71.153 Y35.48 E16.0666
G1 X71.432 Y36.197 E16.10498
G1 X71.634 Y36.939 E16.14335
G1 X71.758 Y37.698 E16.18171
G1 X71.803 Y38.512 E16.22239
G1 X71.803 Y42.112 E16.40199
G1 X71.763 Y42.88 E16.44036
G1 X71.644 Y43.64 E16.47874
G1 X71.446 Y44.383 E16.5171
G1 X71.172 Y45.102 E16.55549
G1 X70.825 Y45.788 E16.59384
G1 X70.409 Y46.435 E16.63222
G1 X70.209 Y46.685 E16.64819
G1 X70.361 Y46.87 E16.66014
G1 X70.784 Y47.512 E16.69849
G1 X71.139 Y48.195 E16.73689
G1 X71.42 Y48.91 E16.77522
G1 X71.626 Y49.652 E16.81364
G1 X71.754 Y50.41 E16.85199
G1 X71.803 Y51.259 E16.89442
G1 X71.803 Y54.859 E17.07403
G1 X71.763 Y55.627 E17.11239
G1 X71.644 Y56.387 E17.15077
G1 X71.446 Y57.13 E17.18913
G1 X71.172 Y57.849 E17.22752
G1 X70.825 Y58.535 E17.26587
G1 X70.622 Y58.851 E17.28461
G1 X70.784 Y59.098 E17.29935
G1 X71.139 Y59.781 E17.33775
G1 X71.42 Y60.496 E17.37608
G1 X71.626 Y61.238 E17.4145
G1 X71.754 Y61.996 E17.45285
G1 X71.803 Y62.845 E17.49528
G1 X71.803 Y66.445 E17.67488
G1 X71.763 Y67.213 E17.71325
G1 X71.644 Y67.973 E17.75163
G1 X71.446 Y68.716 E17.78999
G1 X71.172 Y69.435 E17.82838
G1 X70.825 Y70.121 E17.86673
G1 X70.409 Y70.768 E17.90511
G1 X69.928 Y71.368 E17.94347
G1 X69.387 Y71.915 E17.98186
G1 X68.792 Y72.403 E18.02025
G1 X68.15 Y72.826 E18.05861
G1 X67.467 Y73.181 E18.09701
G1 X66.752 Y73.462 E18.13534
G1 X66.01 Y73.668 E18.17375
G1 X65.252 Y73.796 E18.21211
G1 X64.438 Y73.845 E18.25279
G1 X56.11 Y73.885 E18.66828
G1 X56.103 Y77.858 E18.86649
G1 X56.062 Y78.626 E18.90487
G1 X55.941 Y79.386 E18.94326
G1 X55.742 Y80.129 E18.98163
G1 X55.467 Y80.847 E19.01999
G1 X55.119 Y81.533 E19.05837
G1 X54.701 Y82.179 E19.09676
G1 X54.219 Y82.778 E19.13511
G1 X53.677 Y83.324 E19.1735
G1 X53.081 Y83.811 E19.2119
G1 X52.439 Y84.233 E19.25023
G1 X51.755 Y84.586 E19.28863
G1 X51.039 Y84.867 E19.327
G1 X50.298 Y85.071 E19.36534
G1 X49.539 Y85.198 E19.40374
G1 X48.703 Y85.245 E19.44551
G1 X29.403 Y85.245 E20.40839
G1 X28.635 Y85.205 E20.44676
G1 X27.875 Y85.086 E20.48514
G1 X27.132 Y84.888 E20.5235
G1 X26.413 Y84.614 E20.56189
G1 X25.727 Y84.267 E20.60024
G1 X25.08 Y83.851 E20.63862
G1 X24.48 Y83.37 E20.67698
G1 X23.933 Y82.829 E20.71537
G1 X23.445 Y82.234 E20.75376
G1 X23.022 Y81.592 E20.79211
G1 X22.667 Y80.909 E20.83052
G1 X22.386 Y80.194 E20.86885
G1 X22.18 Y79.452 E20.90726
G1 X22.052 Y78.694 E20.94562
G1 X22.003 Y77.845 E20.98804
G1 X22.003 Y74.245 E21.16765
G1 X22.043 Y73.477 E21.20602
G1 X22.162 Y72.717 E21.24439
G1 X22.36 Y71.974 E21.28276
G1 X22.634 Y71.255 E21.32114
G1 X22.981 Y70.569 E21.3595
G1 X23.397 Y69.922 E21.39787
G1 X23.878 Y69.322 E21.43624
G1 X24.419 Y68.775 E21.47462
G1 X25.014 Y68.287 E21.51301
G1 X25.656 Y67.864 E21.55137
G1 X26.339 Y67.509 E21.58977
G1 X27.054 Y67.228 E21.6281
G1 X27.796 Y67.022 E21.66652
G1 X28.554 Y66.894 E21.70487
G1 X29.368 Y66.845 E21.74556
G1 X37.696 Y66.805 E22.16105
G1 X37.703 Y62.832 E22.35926
G1 X37.734 Y62.259 E22.38789
G1 X29.403 Y62.259 E22.80352
G1 X28.635 Y62.219 E22.84189
G1 X27.875 Y62.1 E22.88027
G1 X27.132 Y61.902 E22.91863
G1 X26.413 Y61.628 E22.95702
G1 X25.727 Y61.281 E22.99537
G1 X25.08 Y60.865 E23.03375
G1 X24.48 Y60.384 E23.07212
G1 X23.933 Y59.843 E23.1105
G1 X23.445 Y59.248 E23.14889
G1 X23.022 Y58.606 E23.18725
G1 X22.667 Y57.923 E23.22565
G1 X22.386 Y57.208 E23.26398
G1 X22.18 Y56.466 E23.3024
G1 X22.052 Y55.708 E23.34075
G1 X22.003 Y54.859 E23.38317
G1 X22.003 Y51.259 E23.56278
G1 X22.043 Y50.491 E23.60115
G1 X22.162 Y49.731 E23.63953
G1 X22.36 Y48.988 E23.67789
G1 X22.634 Y48.269 E23.71628
G1 X22.981 Y47.583 E23.75463
G1 X23.397 Y46.936 E23.793
G1 X23.878 Y46.336 E23.83137
G1 X24.419 Y45.789 E23.86975
G1 X25.014 Y45.301 E23.90814
G1 X25.656 Y44.878 E23.9465
G1 X26.339 Y44.523 E23.9849
G1 X27.054 Y44.242 E24.02323
G1 X27.796 Y44.036 E24.06165
G1 X28.554 Y43.908 E24.1
G1 X29.403 Y43.859 E24.14243
G1 X37.919 Y43.859 E24.5673
G1 X37.88 Y43.719 E24.57455
G1 X37.752 Y42.961 E24.6129
G1 X37.703 Y42.125 E24.65468
G1 X37.696 Y38.152 E24.85289
G1 X29.368 Y38.112 E25.26838
G1 X28.6 Y38.068 E25.30676
G1 X27.84 Y37.945 E25.34517
G1 X27.098 Y37.744 E25.38352
G1 X26.381 Y37.467 E25.42187
G1 X25.696 Y37.116 E25.46027
G1 X25.051 Y36.697 E25.49864
G1 X24.453 Y36.213 E25.53703
G1 X23.909 Y35.67 E25.57537
G1 X23.424 Y35.072 E25.61379
G1 X23.004 Y34.428 E25.65214
G1 X22.653 Y33.744 E25.6905
G1 X22.374 Y33.027 E25.72888
G1 X22.172 Y32.285 E25.76725
G1 X22.048 Y31.526 E25.80562
G1 X22.003 Y30.712 E25.84629
G1 X22.003 Y27.112 E26.0259
G1 X22.043 Y26.344 E26.06426
G1 X22.162 Y25.584 E26.10264
G1 X22.36 Y24.841 E26.141
G1 X22.634 Y24.122 E26.17939
G1 X22.981 Y23.436 E26.21775
G1 X23.397 Y22.789 E26.25612
G1 X23.878 Y22.189 E26.29449
G0 F3600 X24.274 Y22.349
G1 F1200 X24.811 Y21.828 E26.33181
G1 X25.401 Y21.369 E26.36911
G1 X26.037 Y20.974 E26.40646
G1 X26.711 Y20.65 E26.44377
G1 X27.416 Y20.4 E26.48109
G1 X28.144 Y20.226 E26.51843
G1 X28.886 Y20.131 E26.55575
G1 X29.403 Y20.112 E26.58156
G1 X48.703 Y20.112 E27.54444
G1 X49.45 Y20.152 E27.58176
G1 X50.188 Y20.271 E27.61906
G1 X50.91 Y20.469 E27.65641
G1 X51.606 Y20.742 E27.69371
G1 X52.269 Y21.089 E27.73104
G1 X52.892 Y21.504 E27.76839
G1 X53.466 Y21.983 E27.80569
G1 X53.987 Y22.52 E27.84302
G1 X54.446 Y23.11 E27.88031
G1 X54.841 Y23.746 E27.91766
G1 X55.165 Y24.42 E27.95497
G1 X55.415 Y25.125 E27.99229
G1 X55.589 Y25.853 E28.02963
G1 X55.684 Y26.595 E28.06695
G1 X55.703 Y27.1 E28.09217
G1 X55.711 Y31.47 E28.31019
G1 X64.436 Y31.512 E28.74548
G1 X65.183 Y31.556 E28.78282
G1 X65.921 Y31.679 E28.82014
G1 X66.642 Y31.88 E28.85748
G1 X67.337 Y32.156 E28.89479
G1 X67.998 Y32.506 E28.93211
G1 X68.619 Y32.924 E28.96945
G1 X69.191 Y33.405 E29.00674
G1 X69.708 Y33.946 E29.04407
G1 X70.165 Y34.538 E29.08139
G1 X70.557 Y35.175 E29.1187
G1 X70.878 Y35.851 E29.15604
G1 X71.125 Y36.557 E29.19335
G1 X71.295 Y37.286 E29.2307
G1 X71.386 Y38.028 E29.26799
G1 X71.403 Y38.512 E29.29215
G1 X71.403 Y42.112 E29.47176
G1 X71.363 Y42.859 E29.50908
G1 X71.244 Y43.597 E29.54638
G1 X71.046 Y44.319 E29.58373
G1 X70.773 Y45.015 E29.62103
G1 X70.426 Y45.678 E29.65836
G1 X70.011 Y46.301 E29.69571
G1 X69.696 Y46.679 E29.72025
G1 X70.146 Y47.257 E29.7568
G1 X70.541 Y47.893 E29.79415
G1 X70.865 Y48.567 E29.83146
G1 X71.115 Y49.272 E29.86878
G1 X71.289 Y50 E29.90612
G1 X71.384 Y50.742 E29.94344
G1 X71.403 Y51.259 E29.96925
G1 X71.403 Y54.859 E30.14886
G1 X71.363 Y55.606 E30.18618
G1 X71.244 Y56.344 E30.22347
G1 X71.046 Y57.066 E30.26082
G1 X70.773 Y57.762 E30.29812
G1 X70.426 Y58.425 E30.33546
G1 X70.147 Y58.844 E30.36057
G1 X70.541 Y59.479 E30.39785
G1 X70.865 Y60.153 E30.43516
G1 X71.115 Y60.858 E30.47248
G1 X71.289 Y61.586 E30.50983
G1 X71.384 Y62.328 E30.54715
G1 X71.403 Y62.845 E30.57296
G1 X71.403 Y66.445 E30.75256
G1 X71.363 Y67.192 E30.78988
G1 X71.244 Y67.93 E30.82718
G1 X71.046 Y68.652 E30.86453
G1 X70.773 Y69.348 E30.90183
G1 X70.426 Y70.011 E30.93916
G1 X70.011 Y70.634 E30.97651
G1 X69.532 Y71.208 E31.01381
G1 X68.995 Y71.729 E31.05113
G1 X68.405 Y72.188 E31.08843
G1 X67.769 Y72.583 E31.12578
G1 X67.095 Y72.907 E31.16309
G1 X66.39 Y73.157 E31.20041
G1 X65.662 Y73.331 E31.23775
G1 X64.92 Y73.426 E31.27507
G1 X64.436 Y73.445 E31.29924
G1 X55.711 Y73.487 E31.73453
G1 X55.703 Y77.857 E31.95255
G1 X55.662 Y78.604 E31.98988
G1 X55.541 Y79.343 E32.02724
G1 X55.342 Y80.064 E32.06455
G1 X55.067 Y80.759 E32.10184
G1 X54.72 Y81.422 E32.13918
G1 X54.304 Y82.044 E32.17651
G1 X53.824 Y82.617 E32.2138
G1 X53.285 Y83.137 E32.25117
G1 X52.695 Y83.595 E32.28843
G1 X52.058 Y83.989 E32.3258
G1 X51.383 Y84.312 E32.36313
G1 X50.678 Y84.561 E32.40043
G1 X49.95 Y84.733 E32.43775
G1 X49.208 Y84.827 E32.47507
G1 X48.703 Y84.845 E32.50028
G1 X29.403 Y84.845 E33.46316
G1 X28.656 Y84.805 E33.50048
G1 X27.918 Y84.686 E33.53777
G1 X27.196 Y84.488 E33.57513
G1 X26.5 Y84.215 E33.61242
G1 X25.837 Y83.868 E33.64976
G1 X25.214 Y83.453 E33.6871
G1 X24.64 Y82.974 E33.7244
G1 X24.119 Y82.437 E33.76173
G1 X23.66 Y81.847 E33.79902
G1 X23.265 Y81.211 E33.83638
G1 X22.941 Y80.537 E33.87369
G1 X22.691 Y79.832 E33.911
G1 X22.517 Y79.104 E33.94835
G1 X22.422 Y78.362 E33.98567
G1 X22.403 Y77.845 E34.01148
G1 X22.403 Y74.245 E34.19108
G1 X22.443 Y73.498 E34.2284
G1 X22.562 Y72.76 E34.2657
G1 X22.76 Y72.038 E34.30305
G1 X23.033 Y71.342 E34.34035
G1 X23.38 Y70.679 E34.37768
G1 X23.795 Y70.056 E34.41503
G1 X24.274 Y69.482 E34.45233
G1 X24.811 Y68.961 E34.48966
G1 X25.401 Y68.502 E34.52695
G1 X26.037 Y68.107 E34.5643
G1 X26.711 Y67.783 E34.60161
G1 X27.416 Y67.533 E34.63893
G1 X28.144 Y67.359 E34.67627
G1 X28.886 Y67.264 E34.71359
G1 X29.37 Y67.245 E34.73776
G1 X38.095 Y67.203 E35.17306
G1 X38.103 Y62.833 E35.39108
G1 X38.144 Y62.086 E35.4284
G1 X38.181 Y61.859 E35.43987
G1 X29.403 Y61.859 E35.87781
G1 X28.656 Y61.819 E35.91513
G1 X27.918 Y61.7 E35.95243
G1 X27.196 Y61.502 E35.98978
G1 X26.5 Y61.229 E36.02708
G1 X25.837 Y60.882 E36.06441
G1 X25.214 Y60.467 E36.10176
G1 X24.64 Y59.988 E36.13905
G1 X24.119 Y59.451 E36.17638
G1 X23.66 Y58.861 E36.21368
G1 X23.265 Y58.225 E36.25103
