;FLAVOR:Marlin
;TIME:753
;Filament used: 0.44353m
;Layer height: 0.2
;Generated with Cura_SteamEngine 3.6.0
M104 S200
M105
M109 S200
M82 ;absolute extrusion mode
G28 ;Home
G1 Z15.0 F6000 ;Move the platform down 15mm
;Prime the extruder
G92 E0
G1 F200 E3
G92 E0
G92 E0
G1 F1500 E-6.5
;LAYER_COUNT:15
;LAYER:0
M107
G0 F3600 X34.186 Y27.729 Z0.3
;TYPE:SKIRT
G1 F1500 E0
G1 F1200 X37.309 Y23.494 E0.26252
G1 X37.791 Y22.962 E0.29834
G1 X38.705 Y22.135 E0.35983
G1 X39.249 Y21.729 E0.3937
G1 X40.304 Y21.087 E0.45531
G1 X40.758 Y20.852 E0.48081
G1 X41.307 Y20.617 E0.51061
G1 X41.795 Y20.449 E0.53636
G1 X43.016 Y20.123 E0.59941
G1 X43.686 Y20.01 E0.63331
G1 X44.879 Y19.924 E0.69298
G1 X45.569 Y19.941 E0.72741
G1 X46.846 Y20.095 E0.79159
G1 X47.534 Y20.247 E0.82674
G1 X48.69 Y20.625 E0.88742
G1 X49.295 Y20.887 E0.92031
G1 X50.351 Y21.463 E0.98032
G1 X50.916 Y21.844 E1.01432
G1 X51.875 Y22.634 E1.07631
G1 X52.365 Y23.125 E1.11091
G1 X53.157 Y24.087 E1.17308
G1 X53.275 Y24.238 E1.18264
G1 X56.569 Y28.704 E1.4595
G1 X60.049 Y32.902 E1.73154
G1 X63.783 Y36.922 E2.00527
G1 X65.703 Y38.819 E2.13993
G1 X70.464 Y43.248 E2.46434
G1 X70.828 Y43.642 E2.49111
G1 X70.995 Y43.869 E2.50517
G1 X71.676 Y44.877 E2.56586
G1 X72.005 Y45.482 E2.60021
G1 X72.493 Y46.628 E2.66236
G1 X72.702 Y47.286 E2.6968
G1 X72.964 Y48.513 E2.7594
G1 X73.035 Y49.025 E2.78518
G1 X73.077 Y49.653 E2.81658
G1 X73.075 Y50.167 E2.84223
G1 X72.984 Y51.359 E2.90187
G1 X72.87 Y52.02 E2.93533
G1 X72.548 Y53.217 E2.99718
G1 X72.277 Y53.922 E3.03486
G1 X68.904 Y60.516 E3.40438
G1 X66.688 Y65.519 E3.67737
G1 X64.191 Y72.129 E4.02988
G1 X63.889 Y72.744 E4.06407
G1 X63.246 Y73.789 E4.12528
G1 X62.837 Y74.331 E4.15916
G1 X62.007 Y75.239 E4.22053
G1 X61.496 Y75.701 E4.2549
G1 X60.499 Y76.441 E4.31684
G1 X60.077 Y76.71 E4.34181
G1 X59.549 Y76.998 E4.37182
G1 X59.242 Y77.148 E4.38886
G1 X58.693 Y77.383 E4.41866
G1 X58.205 Y77.551 E4.44441
G1 X56.984 Y77.877 E4.50746
G1 X56.476 Y77.974 E4.53326
G1 X55.865 Y78.046 E4.56395
G1 X55.284 Y78.067 E4.59296
G1 X47.467 Y77.718 E4.98334
G1 X41.983 Y77.79 E5.25696
G1 X37.073 Y78.079 E5.50234
G1 X36.43 Y78.059 E5.53444
G1 X35.154 Y77.905 E5.59856
G1 X34.466 Y77.753 E5.63371
G1 X33.31 Y77.375 E5.69439
G1 X32.705 Y77.113 E5.72728
G1 X31.649 Y76.537 E5.7873
G1 X31.083 Y76.155 E5.82136
G1 X30.122 Y75.363 E5.88349
G1 X29.632 Y74.873 E5.91806
G1 X28.841 Y73.912 E5.98016
G1 X28.453 Y73.334 E6.01489
G1 X27.851 Y72.219 E6.07811
G1 X27.744 Y72.003 E6.09013
G1 X26.411 Y69.082 E6.25032
G1 X23.915 Y64.195 E6.52409
G1 X21.157 Y59.477 E6.79674
G1 X18.634 Y55.636 E7.02602
G1 X18.48 Y55.379 E7.04096
G1 X17.867 Y54.251 E7.10501
G1 X17.6 Y53.624 E7.13901
G1 X17.236 Y52.481 E7.19886
G1 X17.091 Y51.817 E7.23277
G1 X16.941 Y50.563 E7.29577
G1 X16.917 Y50.059 E7.32095
G1 X16.929 Y49.492 E7.34924
G1 X16.978 Y48.97 E7.3754
G1 X17.192 Y47.699 E7.4397
G1 X17.373 Y47.028 E7.47437
G1 X17.809 Y45.871 E7.53606
G1 X18.025 Y45.403 E7.56177
G1 X18.307 Y44.891 E7.59094
G1 X18.579 Y44.47 E7.61594
G1 X19.325 Y43.474 E7.67803
G1 X19.781 Y42.972 E7.71186
G1 X23.173 Y39.88 E7.94085
G1 X27.088 Y36.022 E8.21507
G1 X30.756 Y31.975 E8.48756
G1 X34.186 Y27.729 E8.75988
G0 F3600 X34.513 Y27.96
G1 F1200 X37.631 Y23.732 E9.02197
G1 X38.059 Y23.258 E9.05383
G1 X38.973 Y22.431 E9.11533
G1 X39.456 Y22.07 E9.14541
G1 X40.511 Y21.428 E9.20703
G1 X40.916 Y21.22 E9.22974
G1 X41.465 Y20.985 E9.25953
G1 X41.899 Y20.835 E9.28244
G1 X43.12 Y20.509 E9.34549
G1 X43.715 Y20.409 E9.37559
G1 X44.908 Y20.323 E9.43527
G1 X45.521 Y20.338 E9.46586
G1 X46.798 Y20.492 E9.53003
G1 X47.41 Y20.627 E9.5613
G1 X48.566 Y21.005 E9.62198
G1 X49.103 Y21.238 E9.65118
G1 X50.159 Y21.814 E9.71119
G1 X50.662 Y22.153 E9.74145
G1 X51.621 Y22.943 E9.80344
G1 X52.056 Y23.379 E9.83417
G1 X52.848 Y24.341 E9.89634
G1 X52.953 Y24.476 E9.90487
G1 X56.248 Y28.943 E10.1818
G1 X59.747 Y33.165 E10.45537
G1 X63.503 Y37.208 E10.73069
G1 X65.431 Y39.114 E10.86594
G1 X70.191 Y43.541 E11.19025
G1 X70.664 Y44.093 E11.22652
G1 X71.345 Y45.101 E11.28721
G1 X71.637 Y45.638 E11.3177
G1 X72.125 Y46.784 E11.37985
G1 X72.31 Y47.37 E11.4105
G1 X72.572 Y48.597 E11.4731
G1 X72.636 Y49.051 E11.49597
G1 X72.678 Y49.679 E11.52738
G1 X72.676 Y50.137 E11.55023
G1 X72.585 Y51.329 E11.60987
G1 X72.484 Y51.916 E11.63958
G1 X72.162 Y53.113 E11.70142
G1 X71.921 Y53.739 E11.73489
G1 X68.542 Y60.343 E12.10499
G1 X66.322 Y65.358 E12.37861
G1 X63.817 Y71.988 E12.7322
G1 X63.548 Y72.534 E12.76257
G1 X62.905 Y73.579 E12.82378
G1 X62.542 Y74.061 E12.85389
G1 X61.712 Y74.969 E12.91526
G1 X61.257 Y75.38 E12.94585
G1 X60.26 Y76.12 E13.00779
G1 X59.885 Y76.359 E13.02998
G1 X59.357 Y76.647 E13.05999
G1 X59.084 Y76.78 E13.07514
G1 X58.535 Y77.015 E13.10493
G1 X58.101 Y77.165 E13.12784
G1 X56.88 Y77.491 E13.19089
G1 X56.429 Y77.577 E13.21379
G1 X55.818 Y77.649 E13.24449
G1 X55.301 Y77.668 E13.2703
G1 X47.462 Y77.318 E13.66178
G1 X41.954 Y77.39 E13.9366
G1 X37.049 Y77.679 E14.18173
G1 X36.478 Y77.662 E14.21023
G1 X35.202 Y77.508 E14.27435
G1 X34.59 Y77.373 E14.30562
G1 X33.434 Y76.995 E14.3663
G1 X32.897 Y76.762 E14.3955
G1 X31.841 Y76.186 E14.45551
G1 X31.338 Y75.846 E14.4858
G1 X30.377 Y75.054 E14.54793
G1 X29.941 Y74.619 E14.57866
G1 X29.15 Y73.658 E14.64076
G1 X28.805 Y73.144 E14.67164
G1 X28.203 Y72.029 E14.73486
G1 X28.108 Y71.837 E14.74555
G1 X26.774 Y68.912 E14.90594
G1 X24.266 Y64.004 E15.18091
G1 X21.501 Y59.273 E15.4543
G1 X18.968 Y55.417 E15.68447
G1 X18.831 Y55.188 E15.69778
G1 X18.218 Y54.06 E15.76183
G1 X17.981 Y53.503 E15.79203
G1 X17.617 Y52.36 E15.85188
G1 X17.489 Y51.769 E15.88205
G1 X17.339 Y50.515 E15.94506
G1 X17.317 Y50.067 E15.96743
G1 X17.329 Y49.5 E15.99573
G1 X17.372 Y49.037 E16.01893
G1 X17.586 Y47.766 E16.08323
G1 X17.748 Y47.169 E16.11409
G1 X18.184 Y46.012 E16.17578
G1 X18.375 Y45.596 E16.19861
G1 X18.657 Y45.084 E16.22778
G1 X18.899 Y44.71 E16.25
G1 X19.645 Y43.714 E16.31208
G1 X20.05 Y43.267 E16.34218
G1 X23.467 Y40.152 E16.57286
G1 X27.375 Y36.301 E16.84658
G1 X31.055 Y32.24 E17.12
G1 X34.513 Y27.96 E17.39451
G1 F1500 E10.89451
;MESH:kesicikapak.stl(4)
G0 F3600 X37.853 Y30.366
G0 X39.128 Y30.302
G0 X45.568 Y35.772
G0 X45.577 Y35.871
;TYPE:WALL-INNER
G1 F1500 E17.39451
G1 F1200 X45.3 Y35.891 E17.40837
G1 X45.011 Y35.899 E17.42279
G1 X44.735 Y35.894 E17.43656
G1 X44.446 Y35.874 E17.45102
G1 X44.178 Y35.843 E17.46448
G1 X43.899 Y35.798 E17.47858
G1 X43.626 Y35.738 E17.49252
G1 X43.348 Y35.664 E17.50687
G1 X43.09 Y35.583 E17.52036
G1 X42.817 Y35.481 E17.5349
G1 X42.574 Y35.378 E17.54807
G1 X42.308 Y35.249 E17.56282
G1 X42.056 Y35.113 E17.57711
G1 X41.83 Y34.976 E17.59029
G1 X41.588 Y34.813 E17.60485
G1 X41.369 Y34.649 E17.6185
G1 X41.145 Y34.465 E17.63296
G1 X40.945 Y34.285 E17.64639
G1 X40.738 Y34.079 E17.66096
G1 X40.548 Y33.871 E17.67501
G1 X40.364 Y33.648 E17.68943
G1 X40.211 Y33.445 E17.70212
G1 X40.039 Y33.191 E17.71742
G1 X39.897 Y32.96 E17.73095
G1 X39.762 Y32.713 E17.74499
G1 X39.643 Y32.469 E17.75854
G1 X39.525 Y32.194 E17.77346
G1 X39.425 Y31.93 E17.78755
G1 X39.343 Y31.673 E17.80101
G1 X39.272 Y31.409 E17.81465
G1 X39.209 Y31.125 E17.82916
G1 X39.162 Y30.842 E17.84347
G1 X39.128 Y30.571 E17.8571
G1 X39.109 Y30.302 E17.87055
G1 X39.101 Y30.026 E17.88433
G1 X39.106 Y29.728 E17.8992
G1 X39.125 Y29.448 E17.9132
G1 X39.157 Y29.178 E17.92676
G1 X39.201 Y28.903 E17.94066
G1 X39.259 Y28.638 E17.95419
G1 X39.336 Y28.348 E17.96916
G1 X39.417 Y28.09 E17.98265
G1 X39.513 Y27.832 E17.99639
G1 X39.624 Y27.568 E18.01067
G1 X39.751 Y27.308 E18.02511
G1 X39.89 Y27.051 E18.03969
G1 X40.021 Y26.835 E18.05229
G1 X40.19 Y26.584 E18.06739
G1 X40.356 Y26.362 E18.08122
G1 X40.535 Y26.145 E18.09525
G1 X40.711 Y25.949 E18.10839
G1 X40.921 Y25.738 E18.12324
G1 X41.122 Y25.554 E18.13684
G1 X41.346 Y25.369 E18.15133
G1 X41.554 Y25.212 E18.16434
G1 X41.809 Y25.039 E18.17971
G1 X42.04 Y24.897 E18.19324
G1 X42.287 Y24.762 E18.20728
G1 X42.531 Y24.643 E18.22082
G1 X42.806 Y24.525 E18.23575
G1 X43.062 Y24.428 E18.24941
G1 X43.319 Y24.346 E18.26287
G1 X43.609 Y24.267 E18.27787
G1 X43.857 Y24.212 E18.29054
G1 X44.158 Y24.162 E18.30576
G1 X44.423 Y24.129 E18.31908
G1 X44.7 Y24.109 E18.33294
G1 X44.989 Y24.101 E18.34736
G1 X45.265 Y24.106 E18.36114
G1 X45.554 Y24.126 E18.37559
G1 X45.822 Y24.157 E18.38905
G1 X46.101 Y24.202 E18.40315
G1 X46.37 Y24.261 E18.41689
G1 X46.652 Y24.336 E18.43145
G1 X46.91 Y24.417 E18.44494
G1 X47.176 Y24.516 E18.4591
G1 X47.432 Y24.624 E18.47296
G1 X47.692 Y24.751 E18.48739
G1 X47.944 Y24.887 E18.50168
G1 X48.165 Y25.021 E18.51458
G1 X48.412 Y25.187 E18.52942
G1 X48.631 Y25.351 E18.54307
G1 X48.855 Y25.535 E18.55753
G1 X49.051 Y25.711 E18.57068
G1 X49.262 Y25.921 E18.58553
G1 X49.446 Y26.122 E18.59912
G1 X49.636 Y26.352 E18.61401
G1 X49.788 Y26.554 E18.62662
G1 X49.961 Y26.809 E18.64199
G1 X50.099 Y27.033 E18.65512
G1 X50.238 Y27.287 E18.66956
G1 X50.362 Y27.54 E18.68362
G1 X50.466 Y27.782 E18.69676
G1 X50.572 Y28.062 E18.7117
G1 X50.652 Y28.31 E18.7247
G1 X50.731 Y28.6 E18.7397
G1 X50.792 Y28.874 E18.7537
G1 X50.835 Y29.133 E18.7668
G1 X50.87 Y29.41 E18.78073
G1 X50.891 Y29.691 E18.79479
G1 X50.899 Y29.974 E18.80891
G1 X50.894 Y30.265 E18.82343
G1 X50.875 Y30.545 E18.83743
G1 X50.843 Y30.822 E18.85134
G1 X50.799 Y31.097 E18.86524
G1 X50.741 Y31.362 E18.87877
G1 X50.664 Y31.652 E18.89374
G1 X50.583 Y31.91 E18.90723
G1 X50.487 Y32.168 E18.92097
G1 X50.376 Y32.432 E18.93525
G1 X50.25 Y32.69 E18.94958
G1 X50.113 Y32.944 E18.96398
G1 X49.979 Y33.165 E18.97687
G1 X49.813 Y33.412 E18.99172
G1 X49.649 Y33.631 E19.00537
G1 X49.465 Y33.855 E19.01983
G1 X49.289 Y34.051 E19.03297
G1 X49.081 Y34.26 E19.04768
G1 X48.878 Y34.446 E19.06142
G1 X48.654 Y34.631 E19.07591
G1 X48.446 Y34.788 E19.08892
G1 X48.191 Y34.961 E19.10429
G1 X47.959 Y35.104 E19.11789
G1 X47.729 Y35.23 E19.13097
G1 X47.467 Y35.358 E19.14552
G1 X47.2 Y35.472 E19.16
G1 X46.938 Y35.572 E19.17399
G1 X46.681 Y35.654 E19.18745
G1 X46.391 Y35.733 E19.20245
G1 X46.143 Y35.788 E19.21512
G1 X45.842 Y35.838 E19.23034
G1 X45.577 Y35.871 E19.24367
G0 F3600 X45.568 Y35.772
G0 X47.163 Y35.38
G0 X47.351 Y35.843
;TYPE:WALL-OUTER
G1 F1200 X47.07 Y35.95 E19.25867
G1 X46.795 Y36.038 E19.27307
G1 X46.496 Y36.119 E19.28853
G1 X46.209 Y36.183 E19.3032
G1 X45.908 Y36.233 E19.31842
G1 X45.614 Y36.269 E19.3332
G1 X45.32 Y36.291 E19.34791
G1 X45.014 Y36.299 E19.36318
G1 X44.721 Y36.294 E19.3778
G1 X44.412 Y36.273 E19.39325
G1 X44.114 Y36.238 E19.40822
G1 X43.825 Y36.191 E19.42283
G1 X43.527 Y36.126 E19.43804
G1 X43.245 Y36.051 E19.4526
G1 X42.95 Y35.958 E19.46803
G1 X42.677 Y35.856 E19.48257
G1 X42.399 Y35.738 E19.49764
G1 X42.133 Y35.609 E19.51239
G1 X41.861 Y35.462 E19.52781
G1 X41.612 Y35.311 E19.54234
G1 X41.356 Y35.139 E19.55773
G1 X41.122 Y34.964 E19.57231
G1 X40.883 Y34.768 E19.58773
G1 X40.667 Y34.573 E19.60224
G1 X40.456 Y34.363 E19.6171
G1 X40.247 Y34.134 E19.63256
G1 X40.056 Y33.903 E19.64752
G1 X39.881 Y33.671 E19.66202
G1 X39.708 Y33.416 E19.67739
G1 X39.55 Y33.159 E19.69244
G1 X39.411 Y32.905 E19.70689
G1 X39.275 Y32.627 E19.72233
G1 X39.157 Y32.352 E19.73726
G1 X39.05 Y32.07 E19.7523
G1 X38.962 Y31.795 E19.76671
G1 X38.881 Y31.496 E19.78216
G1 X38.816 Y31.203 E19.79714
G1 X38.767 Y30.908 E19.81206
G1 X38.73 Y30.609 E19.82709
G1 X38.709 Y30.32 E19.84154
G1 X38.701 Y30.019 E19.85657
G1 X38.706 Y29.721 E19.87144
G1 X38.726 Y29.421 E19.88644
G1 X38.762 Y29.114 E19.90186
G1 X38.808 Y28.829 E19.91626
G1 X38.872 Y28.535 E19.93127
G1 X38.949 Y28.245 E19.94624
G1 X39.042 Y27.95 E19.96167
G1 X39.144 Y27.677 E19.97621
G1 X39.26 Y27.402 E19.9911
G1 X39.391 Y27.133 E20.00603
G1 X39.538 Y26.861 E20.02145
G1 X39.689 Y26.612 E20.03598
G1 X39.861 Y26.356 E20.05137
G1 X40.036 Y26.122 E20.06595
G1 X40.232 Y25.883 E20.08137
G1 X40.427 Y25.667 E20.09589
G1 X40.637 Y25.456 E20.11074
G1 X40.859 Y25.253 E20.12575
G1 X41.097 Y25.056 E20.14116
G1 X41.329 Y24.881 E20.15566
G1 X41.584 Y24.708 E20.17103
G1 X41.841 Y24.55 E20.18608
G1 X42.095 Y24.411 E20.20053
G1 X42.373 Y24.275 E20.21597
G1 X42.648 Y24.157 E20.2309
G1 X42.93 Y24.05 E20.24595
G1 X43.205 Y23.962 E20.26035
G1 X43.504 Y23.881 E20.27581
G1 X43.791 Y23.817 E20.29048
G1 X44.092 Y23.767 E20.3057
G1 X44.386 Y23.731 E20.32048
G1 X44.68 Y23.709 E20.33518
G1 X44.986 Y23.701 E20.35046
G1 X45.279 Y23.706 E20.36508
G1 X45.588 Y23.727 E20.38053
G1 X45.886 Y23.762 E20.3955
G1 X46.175 Y23.809 E20.41011
G1 X46.473 Y23.874 E20.42532
G1 X46.755 Y23.949 E20.43988
G1 X47.05 Y24.042 E20.45531
G1 X47.323 Y24.144 E20.46985
G1 X47.598 Y24.26 E20.48474
G1 X47.867 Y24.391 E20.49967
G1 X48.139 Y24.538 E20.51509
G1 X48.388 Y24.689 E20.52962
G1 X48.644 Y24.861 E20.54501
G1 X48.878 Y25.036 E20.55959
G1 X49.117 Y25.232 E20.57501
G1 X49.333 Y25.427 E20.58953
G1 X49.544 Y25.637 E20.60438
G1 X49.747 Y25.859 E20.61939
G1 X49.944 Y26.097 E20.6348
G1 X50.119 Y26.329 E20.6493
G1 X50.292 Y26.584 E20.66467
G1 X50.45 Y26.841 E20.67972
G1 X50.589 Y27.095 E20.69417
G1 X50.721 Y27.364 E20.70912
G1 X50.84 Y27.64 E20.72411
G1 X50.95 Y27.93 E20.73959
G1 X51.038 Y28.205 E20.75399
G1 X51.117 Y28.495 E20.76899
G1 X51.182 Y28.787 E20.78391
G1 X51.232 Y29.084 E20.79894
G1 X51.269 Y29.381 E20.81387
G1 X51.291 Y29.68 E20.82883
G1 X51.299 Y29.981 E20.84385
G1 X51.294 Y30.279 E20.85872
G1 X51.274 Y30.579 E20.87372
G1 X51.238 Y30.886 E20.88914
G1 X51.192 Y31.171 E20.90354
G1 X51.128 Y31.465 E20.91855
G1 X51.051 Y31.755 E20.93352
G1 X50.958 Y32.05 E20.94895
G1 X50.856 Y32.323 E20.96349
G1 X50.74 Y32.598 E20.97838
G1 X50.609 Y32.867 E20.99331
G1 X50.462 Y33.139 E21.00874
G1 X50.311 Y33.388 E21.02327
G1 X50.139 Y33.644 E21.03865
G1 X49.964 Y33.878 E21.05323
G1 X49.768 Y34.117 E21.06865
G1 X49.573 Y34.333 E21.08317
G1 X49.363 Y34.544 E21.09802
G1 X49.141 Y34.747 E21.11303
G1 X48.903 Y34.944 E21.12844
G1 X48.671 Y35.119 E21.14294
G1 X48.416 Y35.292 E21.15831
G1 X48.16 Y35.45 E21.17332
G1 X47.905 Y35.589 E21.18781
G1 X47.629 Y35.724 E21.20314
G1 X47.351 Y35.843 E21.21823
G0 F3600 X47.164 Y35.914
G0 X46.809 Y35.203
;TYPE:SKIN
G1 F1200 X46.562 Y35.282 E21.23117
G1 X46.292 Y35.356 E21.24513
G1 X46.067 Y35.406 E21.25663
G1 X45.781 Y35.454 E21.2711
G1 X45.543 Y35.484 E21.28307
G1 X45.281 Y35.501 E21.29617
G1 X45.008 Y35.509 E21.30979
G1 X44.762 Y35.504 E21.32207
G1 X44.473 Y35.484 E21.33652
G1 X44.218 Y35.455 E21.34932
G1 X43.972 Y35.415 E21.36176
G1 X43.713 Y35.358 E21.37499
G1 X43.213 Y35.213 E21.40096
G1 X42.969 Y35.122 E21.41395
G1 X42.738 Y35.024 E21.42647
G1 X42.484 Y34.901 E21.44055
G1 X42.255 Y34.778 E21.45352
G1 X42.046 Y34.65 E21.46575
G1 X41.806 Y34.489 E21.48017
G1 X41.617 Y34.347 E21.49196
G1 X41.393 Y34.163 E21.50642
G1 X41.213 Y34.001 E21.51851
G1 X41.02 Y33.809 E21.53209
G1 X40.836 Y33.608 E21.54568
G1 X40.676 Y33.414 E21.55823
G1 X40.529 Y33.219 E21.57041
G1 X40.367 Y32.979 E21.58486
G1 X40.229 Y32.755 E21.59798
G1 X40.109 Y32.534 E21.61053
G1 X39.998 Y32.306 E21.62318
G1 X39.884 Y32.04 E21.63762
G1 X39.794 Y31.802 E21.65031
G1 X39.715 Y31.554 E21.6633
G1 X39.648 Y31.307 E21.67607
G1 X39.589 Y31.041 E21.68966
G1 X39.546 Y30.778 E21.70296
G1 X39.52 Y30.569 E21.71346
G1 X39.499 Y30.275 E21.72817
G1 X39.491 Y30.032 E21.7403
G1 X39.496 Y29.755 E21.75412
G1 X39.513 Y29.494 E21.76717
G1 X39.582 Y28.986 E21.79275
G1 X39.636 Y28.738 E21.80541
G1 X39.711 Y28.457 E21.81992
G1 X39.786 Y28.216 E21.83251
G1 X39.872 Y27.984 E21.84486
G1 X39.975 Y27.739 E21.85811
G1 X40.102 Y27.479 E21.87255
G1 X40.224 Y27.253 E21.88536
G1 X40.345 Y27.053 E21.89703
G1 X40.514 Y26.802 E21.91212
G1 X40.668 Y26.596 E21.92495
G1 X40.825 Y26.406 E21.93725
G1 X40.995 Y26.217 E21.94993
G1 X41.191 Y26.02 E21.9638
G1 X41.378 Y25.848 E21.97647
G1 X41.58 Y25.681 E21.98955
G1 X41.773 Y25.535 E22.00162
G1 X42.021 Y25.367 E22.01657
G1 X42.245 Y25.229 E22.02969
G1 X42.466 Y25.109 E22.04224
G1 X42.694 Y24.998 E22.05489
G1 X42.96 Y24.884 E22.06933
G1 X43.19 Y24.797 E22.0816
G1 X43.438 Y24.718 E22.09458
G1 X43.708 Y24.644 E22.10855
G1 X43.933 Y24.594 E22.12005
G1 X44.219 Y24.546 E22.13452
G1 X44.457 Y24.516 E22.14648
G1 X44.719 Y24.499 E22.15958
G1 X44.992 Y24.491 E22.17321
G1 X45.238 Y24.496 E22.18548
G1 X45.527 Y24.516 E22.19994
